X: 3
T: Missa Et ecce terre motus / Credo
N: Derived from Bru1008c-Missa_Et_ecce_terre_motus-Credo.krn
C: Antoine Brumel
%%abc-version 2.0
%%abcx-abcm2ps-target-version 5.9.1 (29 Sep 2008)
%%abc-creator hum2abc beta
%%abcx-conversion-date 2019/02/16 20:23:56
%%abc-edited-by Jesse Rodin
%%abc-edited-by Legge/Rodin
%%abcx-initial-encoding-date 2014/08/07/
%%humdrum-veritas 282558014
%%humdrum-veritas-data 1981427959
%%linebreak <none>
%%barnumbers 0
L: 1/4
M: 2/1
Q: 1/2=120
V: 1 clef=treble
V: 2 clef=treble
V: 3 clef=treble
V: 4 clef=treble-8
V: 5 clef=treble-8
V: 6 clef=treble-8
V: 7 clef=treble-8
V: 8 clef=treble-8
V: 9 clef=treble-8
V: 10 clef=bass
V: 11 clef=bass
V: 12 clef=bass
K: C
[V:1] z8 | 
[V:2] z8 | 
[V:3] z8 | 
[V:4] z8 | 
[V:5] z8 | 
[V:6] z8 | 
[V:7] z8 | 
[V:8] z8 | 
[V:9] z8 | 
[V:10] A,2A,2F,2F,2 | 
[V:11] D,4D,4 | 
[V:12] z8 | 
[V:1] z8 | 
[V:2] z8 | 
[V:3] z8 | 
[V:4] z8 | 
[V:5] z8 | 
[V:6] d4d4 | 
[V:7] z8 | 
[V:8] z8 | 
[V:9] z8 | 
[V:10] D,2D,2D,4 | 
[V:11] B,,4B,,4 | 
[V:12] z8 | 
[V:1] z8 | 
[V:2] z8 | 
[V:3] z8 | 
[V:4] z8 | 
[V:5] z8 | 
[V:6] B4B4 | 
[V:7] z8 | 
[V:8] z8 | 
[V:9] d4d4 | 
[V:10] z2G,2G,4 | 
[V:11] G,,4G,,4 | 
[V:12] z8 | 
[V:1] z8 | 
[V:2] z8 | 
[V:3] z8 | 
[V:4] z8 | 
[V:5] d4d4 | 
[V:6] G4G4 | 
[V:7] z8 | 
[V:8] z8 | 
[V:9] B4B4 | 
[V:10] D,4D,2G,2- | 
[V:11] G,,8 | 
[V:12] z8 | 
[V:1] z8 | 
[V:2] z8 | 
[V:3] z8 | 
[V:4] z8 | 
[V:5] B4B4 | 
[V:6] D4z2d2- | 
[V:7] z8 | 
[V:8] z8 | 
[V:9] G4G4 | 
[V:10] G,A,B,CD2B,2- | 
[V:11] G,,4G,,4 | 
[V:12] z8 | 
[V:1] z8 | 
[V:2] z8 | 
[V:3] z8 | 
[V:4] z8 | 
[V:5] G4G2G2 | 
[V:6] d2d2B3c | 
[V:7] z8 | 
[V:8] z8 | 
[V:9] D4D2G2- | 
[V:10] B,2A,G,D4 | 
[V:11] G,,4G,,4 | 
[V:12] z8 | 
[V:1] z8 | 
[V:2] z8 | 
[V:3] z8 | 
[V:4] z8 | 
[V:5] D4z2D2- | 
[V:6] d2d2G4- | 
[V:7] z8 | 
[V:8] z8 | 
[V:9] G2A2B2B2 | 
[V:10] B,3CD4 | 
[V:11] G,,4G,,4 | 
[V:12] z8 | 
[V:1] z8 | 
[V:2] z8 | 
[V:3] z8 | 
[V:4] z8 | 
[V:5] D2CB,C4 | 
[V:6] G2^FE^F4 | 
[V:7] z8 | 
[V:8] z8 | 
[V:9] c4c4 | 
[V:10] z2A,4A,2 | 
[V:11] A,,8 | 
[V:12] z8 | 
[V:1] z8 | 
[V:2] z8 | 
[V:3] z8 | 
[V:4] d4d4 | 
[V:5] D8- | 
[V:6] G8- | 
[V:7] z8 | 
[V:8] z8 | 
[V:9] B6AG | 
[V:10] D,2D,2G,4 | 
[V:11] G,,8- | 
[V:12] z8 | 
[V:1] d4d4 | 
[V:2] z8 | 
[V:3] z8 | 
[V:4] B4B4 | 
[V:5] D8 | 
[V:6] G8 | 
[V:7] z8 | 
[V:8] z8 | 
[V:9] d8- | 
[V:10] z4D,4- | 
[V:11] G,,8- | 
[V:12] z8 | 
[V:1] B4B4 | 
[V:2] d4d4 | 
[V:3] z8 | 
[V:4] G4G4 | 
[V:5] z8 | 
[V:6] z8 | 
[V:7] z8 | 
[V:8] z8 | 
[V:9] d8 | 
[V:10] D,2D,2D,4 | 
[V:11] G,,8 | 
[V:12] z8 | 
[V:1] G4G4 | 
[V:2] B4B4 | 
[V:3] d4d4 | 
[V:4] G8 | 
[V:5] z8 | 
[V:6] z8 | 
[V:7] z8 | 
[V:8] z8 | 
[V:9] z8 | 
[V:10] z8 | 
[V:11] z8 | 
[V:12] z8 | 
[V:1] D4z2d2- | 
[V:2] G4G4 | 
[V:3] B4B4 | 
[V:4] G4G4 | 
[V:5] z8 | 
[V:6] z8 | 
[V:7] z8 | 
[V:8] z8 | 
[V:9] z8 | 
[V:10] z8 | 
[V:11] z8 | 
[V:12] z8 | 
[V:1] d2d2B3c | 
[V:2] D4D2G2- | 
[V:3] G4G2G2 | 
[V:4] G4G4 | 
[V:5] z8 | 
[V:6] z8 | 
[V:7] z8 | 
[V:8] z8 | 
[V:9] z8 | 
[V:10] z8 | 
[V:11] z8 | 
[V:12] z8 | 
[V:1] d2d2G4- | 
[V:2] G2A2B2B2 | 
[V:3] D4z2D2- | 
[V:4] G4G4 | 
[V:5] z8 | 
[V:6] z8 | 
[V:7] z8 | 
[V:8] z8 | 
[V:9] z8 | 
[V:10] z8 | 
[V:11] z8 | 
[V:12] z8 | 
[V:1] G2^FEF4 | 
[V:2] c4c4 | 
[V:3] D2CB,C4 | 
[V:4] A8 | 
[V:5] z8 | 
[V:6] z8 | 
[V:7] z8 | 
[V:8] z8 | 
[V:9] z8 | 
[V:10] z8 | 
[V:11] z8 | 
[V:12] z8 | 
[V:1] G4GABc | 
[V:2] B6AG | 
[V:3] D8- | 
[V:4] G8 | 
[V:5] z8 | 
[V:6] z8 | 
[V:7] z8 | 
[V:8] z8 | 
[V:9] z8 | 
[V:10] z8 | 
[V:11] z8 | 
[V:12] z8 | 
[V:1] d8 | 
[V:2] F8 | 
[V:3] D8 | 
[V:4] A8 | 
[V:5] z8 | 
[V:6] z8 | 
[V:7] z8 | 
[V:8] z8 | 
[V:9] z8 | 
[V:10] A,2A,2F,2F,2 | 
[V:11] D,4D,4 | 
[V:12] z8 | 
[V:1] z8 | 
[V:2] z8 | 
[V:3] z8 | 
[V:4] z8 | 
[V:5] z8 | 
[V:6] d4d4 | 
[V:7] z8 | 
[V:8] z8 | 
[V:9] z4d4 | 
[V:10] D,4D,2D,2 | 
[V:11] B,,4B,,4 | 
[V:12] z8 | 
[V:1] z8 | 
[V:2] z8 | 
[V:3] z8 | 
[V:4] z8 | 
[V:5] d4d4 | 
[V:6] B4B4 | 
[V:7] z8 | 
[V:8] z8 | 
[V:9] d4B4 | 
[V:10] G,4z2G,2 | 
[V:11] G,,4G,,4 | 
[V:12] z8 | 
[V:1] z8 | 
[V:2] z8 | 
[V:3] z8 | 
[V:4] z8 | 
[V:5] B4B4 | 
[V:6] G4G2G2 | 
[V:7] z8 | 
[V:8] z8 | 
[V:9] B4G4 | 
[V:10] D,2D,2D,2G,2- | 
[V:11] G,,4G,,4 | 
[V:12] z8 | 
[V:1] z8 | 
[V:2] z8 | 
[V:3] z8 | 
[V:4] z8 | 
[V:5] G4G4 | 
[V:6] D4z2d2 | 
[V:7] z8 | 
[V:8] z8 | 
[V:9] G2G2D4 | 
[V:10] G,A,B,CD2B,2- | 
[V:11] G,,4G,,4 | 
[V:12] z8 | 
[V:1] z8 | 
[V:2] z8 | 
[V:3] z8 | 
[V:4] z8 | 
[V:5] D4z2D2- | 
[V:6] B3cd2G2- | 
[V:7] z8 | 
[V:8] z8 | 
[V:9] G3AB2B2 | 
[V:10] B,CD2G,2B,2 | 
[V:11] G,,4G,,4 | 
[V:12] z8 | 
[V:1] z8 | 
[V:2] z8 | 
[V:3] z8 | 
[V:4] z8 | 
[V:5] D2CB,C4 | 
[V:6] G2^FE^F2^F2 | 
[V:7] z8 | 
[V:8] z8 | 
[V:9] c4c4 | 
[V:10] A,8 | 
[V:11] A,,4A,,4 | 
[V:12] z8 | 
[V:1] z8 | 
[V:2] z8 | 
[V:3] z8 | 
[V:4] d4d4 | 
[V:5] D8- | 
[V:6] G8- | 
[V:7] z8 | 
[V:8] z8 | 
[V:9] B6AG | 
[V:10] D,4G,4 | 
[V:11] G,,8- | 
[V:12] z8 | 
[V:1] d4d4 | 
[V:2] z8 | 
[V:3] z8 | 
[V:4] B4B4 | 
[V:5] D8 | 
[V:6] G8 | 
[V:7] z8 | 
[V:8] z8 | 
[V:9] d8- | 
[V:10] z4D,4 | 
[V:11] G,,8- | 
[V:12] z8 | 
[V:1] B4B4 | 
[V:2] d4d4 | 
[V:3] z8 | 
[V:4] G4G4- | 
[V:5] z8 | 
[V:6] z8 | 
[V:7] z8 | 
[V:8] z8 | 
[V:9] d8 | 
[V:10] D,8 | 
[V:11] G,,8 | 
[V:12] z8 | 
[V:1] G4G2G2 | 
[V:2] B4B4 | 
[V:3] d4d4 | 
[V:4] G2G2G4 | 
[V:5] z8 | 
[V:6] z8 | 
[V:7] z8 | 
[V:8] z8 | 
[V:9] z8 | 
[V:10] z8 | 
[V:11] z8 | 
[V:12] z8 | 
[V:1] D4z2d2- | 
[V:2] G4G2G2 | 
[V:3] B4B4 | 
[V:4] G8 | 
[V:5] z8 | 
[V:6] z8 | 
[V:7] z8 | 
[V:8] z8 | 
[V:9] z8 | 
[V:10] z8 | 
[V:11] z8 | 
[V:12] z8 | 
[V:1] d2d2B3c | 
[V:2] D4D2G2- | 
[V:3] G4G4 | 
[V:4] G8 | 
[V:5] z8 | 
[V:6] z8 | 
[V:7] z8 | 
[V:8] z8 | 
[V:9] z8 | 
[V:10] z8 | 
[V:11] z8 | 
[V:12] z8 | 
[V:1] d2d2G4- | 
[V:2] G2A2B2B2 | 
[V:3] D4z2D2- | 
[V:4] G4G4 | 
[V:5] z8 | 
[V:6] z8 | 
[V:7] z8 | 
[V:8] z8 | 
[V:9] z8 | 
[V:10] z8 | 
[V:11] z8 | 
[V:12] z8 | 
[V:1] G2^FEF4 | 
[V:2] c6BA | 
[V:3] D2CB,C4 | 
[V:4] A4A4 | 
[V:5] z8 | 
[V:6] z8 | 
[V:7] z8 | 
[V:8] z8 | 
[V:9] z8 | 
[V:10] z8 | 
[V:11] z8 | 
[V:12] z8 | 
[V:1] G2B2B2B2 | 
[V:2] B4z2d2 | 
[V:3] z2G2G2G2 | 
[V:4] G4d4 | 
[V:5] G3GG2G2 | 
[V:6] z2d2B2G2 | 
[V:7] z8 | 
[V:8] d8- | 
[V:9] d2B2G2d2- | 
[V:10] D,2D,2D,2D,2 | 
[V:11] G,,4G,,2G,,2 | 
[V:12] z8 | 
[V:1] A2d4cB | 
[V:2] d2d2A2d2- | 
[V:3] F3GA2G2 | 
[V:4] d2f3edc | 
[V:5] D2D2D2D2 | 
[V:6] A2D3CDE | 
[V:7] z8 | 
[V:8] d8 | 
[V:9] dcA2z2d2- | 
[V:10] F,3E,D,2G,,2 | 
[V:11] D,3E,F,2G,2- | 
[V:12] z8 | 
[V:1] A2A2G2G2 | 
[V:2] d2d2B2G2- | 
[V:3] A2D2z2d2 | 
[V:4] d2fedcB2 | 
[V:5] D2D2D2G2 | 
[V:6] F4z2D2 | 
[V:7] z8 | 
[V:8] d8- | 
[V:9] dcA2B2d2- | 
[V:10] D,2D,2G,,4 | 
[V:11] G,2F,2G,4 | 
[V:12] z8 | 
[V:1] A2A2A4 | 
[V:2] G2^FEF2F2 | 
[V:3] d4d4 | 
[V:4] A2A4A2 | 
[V:5] F2D2F3E | 
[V:6] F3GD4 | 
[V:7] z8 | 
[V:8] d8 | 
[V:9] d2cBA2A2 | 
[V:10] z8 | 
[V:11] D,4D,2D,2 | 
[V:12] z8 | 
[V:1] z2d3dd2 | 
[V:2] G4z2d2- | 
[V:3] d2dcBAG2- | 
[V:4] B3A/G/g4 | 
[V:5] D4D2D2 | 
[V:6] d3dd2B2 | 
[V:7] G8- | 
[V:8] B8- | 
[V:9] G4d3d | 
[V:10] G,4D,2G,2- | 
[V:11] G,,2G,,2G,,2G,,2 | 
[V:12] z8 | 
[V:1] B2G2d3c | 
[V:2] ddd2B2G2 | 
[V:3] GF/E/D2z2D2- | 
[V:4] g8 | 
[V:5] D2D2D4 | 
[V:6] G2d3cBA | 
[V:7] G8- | 
[V:8] B8 | 
[V:9] d2B2G2d2- | 
[V:10] G,2F,E,D,2D,2 | 
[V:11] G,,2G,,2G,,4 | 
[V:12] z8 | 
[V:1] BAG2z2d2 | 
[V:2] d3cBAG2 | 
[V:3] D2D2D2D2 | 
[V:4] d3dd2B2 | 
[V:5] z2D2D2D2 | 
[V:6] G4B4 | 
[V:7] G8 | 
[V:8] d8- | 
[V:9] dcBAG4 | 
[V:10] G,,4G,,2G,,2 | 
[V:11] G,4D,2G,2 | 
[V:12] z8 | 
[V:1] d2d2d2d2 | 
[V:2] z2B2B2B2 | 
[V:3] G4z2G2 | 
[V:4] G2d3cBA | 
[V:5] D2D2D4 | 
[V:6] B2B2B2B2 | 
[V:7] G8 | 
[V:8] d8 | 
[V:9] z4z2G2 | 
[V:10] G,,2G,,2G,,4 | 
[V:11] G,2F,E,D,4 | 
[V:12] z8 | 
[V:1] c4z2G2- | 
[V:2] e4e4 | 
[V:3] G2G2c2c2 | 
[V:4] G2c2cdef | 
[V:5] z8 | 
[V:6] c4c3d | 
[V:7] E8- | 
[V:8] e8- | 
[V:9] G2E2G2E2- | 
[V:10] z8 | 
[V:11] G,2G,2E,2G,2 | 
[V:12] C,8- | 
[V:1] G2E2G2E2 | 
[V:2] c4G3G | 
[V:3] G4c3c | 
[V:4] g2c2z2c2- | 
[V:5] z4z2G2- | 
[V:6] efg2c4 | 
[V:7] E8 | 
[V:8] e8- | 
[V:9] ECc3ccc | 
[V:10] G,2G,2E,2G,2 | 
[V:11] E,2C,2z2C2- | 
[V:12] C,8 | 
[V:1] C3DEFG2 | 
[V:2] G2G2G4 | 
[V:3] c2c2c4 | 
[V:4] cdefe2c2 | 
[V:5] G2E2G2E2 | 
[V:6] z2c3ccc | 
[V:7] G8- | 
[V:8] e8- | 
[V:9] G4E4- | 
[V:10] E,2C,2z2C2- | 
[V:11] CCCCG,4 | 
[V:12] C,8- | 
[V:1] z2e3ee2 | 
[V:2] G2G2G4 | 
[V:3] c2c2c4 | 
[V:4] z2c3def | 
[V:5] C2CDEFG2 | 
[V:6] G2c4c2 | 
[V:7] G8 | 
[V:8] e8- | 
[V:9] E2E2E4 | 
[V:10] CCCCG,2E,2- | 
[V:11] E,3F,G,2C,2 | 
[V:12] C,8 | 
[V:1] z2e2c2c2- | 
[V:2] z4c2A2- | 
[V:3] c2A3Bc2- | 
[V:4] e2c2c3d | 
[V:5] C4z4 | 
[V:6] c3BA3G/F/ | 
[V:7] A8- | 
[V:8] e8- | 
[V:9] z4c3B | 
[V:10] E,E,E,2z2E,2 | 
[V:11] z2E,4E,2 | 
[V:12] A,,8- | 
[V:1] cde4c2 | 
[V:2] ABc4BA | 
[V:3] c2A2z2E2- | 
[V:4] e2A2c2c2 | 
[V:5] c3BA3G/F/ | 
[V:6] E4z2c2- | 
[V:7] A8 | 
[V:8] e8- | 
[V:9] A3G/F/E4 | 
[V:10] E,4C,3D, | 
[V:11] C,3D,E,4 | 
[V:12] A,,8 | 
[V:1] z4c2cB | 
[V:2] e4z4 | 
[V:3] E2G4G2 | 
[V:4] z2c2cBcd | 
[V:5] E4z2E2 | 
[V:6] cBcde2c2 | 
[V:7] G8- | 
[V:8] e8- | 
[V:9] C2E3FG2 | 
[V:10] E,4z2G,2 | 
[V:11] z2G,2E,3F, | 
[V:12] C,8- | 
[V:1] cde2c3A | 
[V:2] c2cBcde2 | 
[V:3] G2G2G4 | 
[V:4] e2c2G4 | 
[V:5] C3DE3F | 
[V:6] c2c2ccc2 | 
[V:7] G8- | 
[V:8] e8 | 
[V:9] C2G2E2C2 | 
[V:10] E,3F,G,2C,2 | 
[V:11] G,2G,2C,4 | 
[V:12] C,8 | 
[V:1] B2G2d2d2 | 
[V:2] z4z2d2 | 
[V:3] d2d2B2G2 | 
[V:4] z2d2d2B2 | 
[V:5] G3ABcd2 | 
[V:6] z4G3A | 
[V:7] G8- | 
[V:8] d8- | 
[V:9] z2G3ABc | 
[V:10] B,,3C,D,2G,,2- | 
[V:11] G,,8- | 
[V:12] D,8- | 
[V:1] B2G2d4 | 
[V:2] d2B2G2d2 | 
[V:3] d4B2G2 | 
[V:4] G2d4B2 | 
[V:5] G3ABcd2 | 
[V:6] Bcd2G3A | 
[V:7] G8 | 
[V:8] d8 | 
[V:9] d2G3ABc | 
[V:10] G,,A,,B,,C,D,2G,,2 | 
[V:11] G,,8 | 
[V:12] D,8- | 
[V:1] B2G2d3c | 
[V:2] d2B2G2d2- | 
[V:3] d3cBAG2 | 
[V:4] G2d3cBA | 
[V:5] G3ABcd2 | 
[V:6] Bcd2G3A | 
[V:7] G8- | 
[V:8] d8- | 
[V:9] d2G3ABc | 
[V:10] G,,A,,B,,C,D,2G,,2- | 
[V:11] G,,8- | 
[V:12] D,8- | 
[V:1] BAG2d4 | 
[V:2] dcBAG4 | 
[V:3] d3cBAGF | 
[V:4] G2d4B2 | 
[V:5] G3ABcd2 | 
[V:6] Bcd2G4 | 
[V:7] G8- | 
[V:8] d8 | 
[V:9] d2G3AB2 | 
[V:10] G,,A,,B,,C,D,4 | 
[V:11] G,,8 | 
[V:12] D,8 | 
[V:1] G2c4c2 | 
[V:2] z2e4e2 | 
[V:3] E6G2- | 
[V:4] G4z4 | 
[V:5] e4z4 | 
[V:6] z8 | 
[V:7] G8- | 
[V:8] z8 | 
[V:9] c4c2c2 | 
[V:10] z4E,3F, | 
[V:11] E,3F,G,2E,2- | 
[V:12] C,8- | 
[V:1] c8- | 
[V:2] e8 | 
[V:3] G4G4 | 
[V:4] z8 | 
[V:5] z4E3F | 
[V:6] E3FG2E2- | 
[V:7] G8- | 
[V:8] z8 | 
[V:9] c2c2c4 | 
[V:10] G,2E,3F,G,2 | 
[V:11] E,F,G,2C,4 | 
[V:12] C,8 | 
[V:1] c8 | 
[V:2] z8 | 
[V:3] G8- | 
[V:4] z4e3f | 
[V:5] G2E3FG2 | 
[V:6] EFG2C4 | 
[V:7] G8- | 
[V:8] z8 | 
[V:9] E3FG2E2- | 
[V:10] C,4z4 | 
[V:11] z8 | 
[V:12] C,8- | 
[V:1] E3FG2E2- | 
[V:2] z4E3F | 
[V:3] G8 | 
[V:4] g2e3fg2 | 
[V:5] C4e4 | 
[V:6] c4c2c2 | 
[V:7] G8 | 
[V:8] z8 | 
[V:9] EFG2C4 | 
[V:10] z8 | 
[V:11] z8 | 
[V:12] C,8 | 
[V:1] EFG2C4 | 
[V:2] G2E3FG2 | 
[V:3] E3FG2E2- | 
[V:4] c4z4 | 
[V:5] e2e2e2e2 | 
[V:6] c2c2c2c2 | 
[V:7] z8 | 
[V:8] z8 | 
[V:9] z8 | 
[V:10] z8 | 
[V:11] C,8- | 
[V:12] z8 | 
[V:1] z8 | 
[V:2] C4z4 | 
[V:3] EFG2C4 | 
[V:4] z8 | 
[V:5] e2e2e4 | 
[V:6] c4z4 | 
[V:7] z8 | 
[V:8] z8 | 
[V:9] z8 | 
[V:10] z8 | 
[V:11] C,8 | 
[V:12] z8 | 
[V:1] c4c2c2 | 
[V:2] G4G2G2 | 
[V:3] E4E2E2 | 
[V:4] G4G2G2 | 
[V:5] c4c2c2 | 
[V:6] z8 | 
[V:7] z8 | 
[V:8] z8 | 
[V:9] E4E2E2 | 
[V:10] z8 | 
[V:11] C,4C,2C,2 | 
[V:12] z8 | 
[V:1] c2c2c2c2 | 
[V:2] G2G2G2G2 | 
[V:3] E2E2E2E2 | 
[V:4] G2G2G2G2 | 
[V:5] c2c2G2G2 | 
[V:6] z8 | 
[V:7] z8 | 
[V:8] z8 | 
[V:9] E2E2C2C2 | 
[V:10] z8 | 
[V:11] C,2C,2C,4 | 
[V:12] z8 | 
[V:1] B8 | 
[V:2] G3F/E/D4 | 
[V:3] D4G4 | 
[V:4] G8 | 
[V:5] d3cB4 | 
[V:6] z8 | 
[V:7] z8 | 
[V:8] z8 | 
[V:9] D8 | 
[V:10] z8 | 
[V:11] G,,8 | 
[V:12] z8 | 
[V:1] d4d2d2- | 
[V:2] D4D2F2- | 
[V:3] F4F2D2- | 
[V:4] A4A4 | 
[V:5] z8 | 
[V:6] z8 | 
[V:7] z8 | 
[V:8] z8 | 
[V:9] z8 | 
[V:10] z8 | 
[V:11] D,6D,2- | 
[V:12] z8 | 
[V:1] d2d2c4 | 
[V:2] F2G2A4 | 
[V:3] D2E2F2C2 | 
[V:4] F4F4 | 
[V:5] z8 | 
[V:6] z8 | 
[V:7] z8 | 
[V:8] z8 | 
[V:9] z8 | 
[V:10] z8 | 
[V:11] D,2C,B,,A,,2A,,2 | 
[V:12] z8 | 
[V:1] B4d4 | 
[V:2] z2B3AGF | 
[V:3] z2G3FD2 | 
[V:4] G4D2G2- | 
[V:5] z8 | 
[V:6] z8 | 
[V:7] z8 | 
[V:8] z8 | 
[V:9] z8 | 
[V:10] z8 | 
[V:11] G,,8 | 
[V:12] z8 | 
[V:1] c4e4- | 
[V:2] ECc4BA | 
[V:3] E2C2G4 | 
[V:4] G2E4C2 | 
[V:5] z8 | 
[V:6] z8 | 
[V:7] z8 | 
[V:8] z8 | 
[V:9] z8 | 
[V:10] z8 | 
[V:11] C,8- | 
[V:12] z8 | 
[V:1] e2d2c4- | 
[V:2] G4c4 | 
[V:3] C4E4 | 
[V:4] G8- | 
[V:5] z8 | 
[V:6] z8 | 
[V:7] z8 | 
[V:8] z8 | 
[V:9] z8 | 
[V:10] z8 | 
[V:11] C,4C,4 | 
[V:12] z8 | 
[V:1] c2BAB4 | 
[V:2] d6ed | 
[V:3] D8 | 
[V:4] G8- | 
[V:5] z8 | 
[V:6] z8 | 
[V:7] z8 | 
[V:8] z8 | 
[V:9] z8 | 
[V:10] z8 | 
[V:11] G,,8 | 
[V:12] z8 | 
[V:1] c8 | 
[V:2] e8 | 
[V:3] C8 | 
[V:4] G8 | 
[V:5] G4G2G2 | 
[V:6] e4e2e2 | 
[V:7] z8 | 
[V:8] z8 | 
[V:9] c4c2c2 | 
[V:10] C,4C,2C,2 | 
[V:11] C,8 | 
[V:12] z8 | 
[V:1] z8 | 
[V:2] z8 | 
[V:3] z8 | 
[V:4] z8 | 
[V:5] G2G2G2G2 | 
[V:6] e2e2e2e2 | 
[V:7] z8 | 
[V:8] z8 | 
[V:9] c2c2c2c2 | 
[V:10] C,2C,2C,2C,2 | 
[V:11] z8 | 
[V:12] z8 | 
[V:1] z8 | 
[V:2] z8 | 
[V:3] z8 | 
[V:4] z8 | 
[V:5] G8 | 
[V:6] d8 | 
[V:7] z8 | 
[V:8] z8 | 
[V:9] B8 | 
[V:10] G,,8 | 
[V:11] z8 | 
[V:12] z8 | 
[V:1] z8 | 
[V:2] z8 | 
[V:3] z8 | 
[V:4] z8 | 
[V:5] F4F2F2- | 
[V:6] d4d2A2- | 
[V:7] z8 | 
[V:8] z8 | 
[V:9] A4A4 | 
[V:10] D,4D,2D,2- | 
[V:11] z8 | 
[V:12] z8 | 
[V:1] z8 | 
[V:2] z8 | 
[V:3] z8 | 
[V:4] z8 | 
[V:5] F2EDC2C2 | 
[V:6] A2B2c4 | 
[V:7] z8 | 
[V:8] z8 | 
[V:9] F4F4 | 
[V:10] D,2C,B,,A,,2A,,2 | 
[V:11] z8 | 
[V:12] z8 | 
[V:1] z8 | 
[V:2] z8 | 
[V:3] z8 | 
[V:4] z8 | 
[V:5] D8 | 
[V:6] B4d4 | 
[V:7] z8 | 
[V:8] z8 | 
[V:9] G8- | 
[V:10] G,,8 | 
[V:11] z8 | 
[V:12] z8 | 
[V:1] z8 | 
[V:2] z8 | 
[V:3] z8 | 
[V:4] z8 | 
[V:5] E4C4 | 
[V:6] c4e4- | 
[V:7] z8 | 
[V:8] z8 | 
[V:9] G8 | 
[V:10] C,8- | 
[V:11] z8 | 
[V:12] z8 | 
[V:1] z8 | 
[V:2] z8 | 
[V:3] z8 | 
[V:4] z8 | 
[V:5] G8- | 
[V:6] e2d2c4- | 
[V:7] z8 | 
[V:8] z8 | 
[V:9] C4E4 | 
[V:10] C,4C,4 | 
[V:11] z8 | 
[V:12] z8 | 
[V:1] z8 | 
[V:2] z8 | 
[V:3] z8 | 
[V:4] z8 | 
[V:5] G8- | 
[V:6] c2BAB4 | 
[V:7] z8 | 
[V:8] z8 | 
[V:9] D8 | 
[V:10] G,,8 | 
[V:11] z8 | 
[V:12] z8 | 
[V:1] z4c3c | 
[V:2] E3FG2G2 | 
[V:3] z4E3F | 
[V:4] c4c2c2- | 
[V:5] G8 | 
[V:6] c8 | 
[V:7] z8 | 
[V:8] z8 | 
[V:9] C8 | 
[V:10] C,8 | 
[V:11] C,4C,2C,2- | 
[V:12] z8 | 
[V:1] c2c2c2c2 | 
[V:2] E3FG4 | 
[V:3] G2G2E3F | 
[V:4] c2c2c2BA | 
[V:5] z8 | 
[V:6] z8 | 
[V:7] z8 | 
[V:8] z8 | 
[V:9] z8 | 
[V:10] z8 | 
[V:11] C,2C,2C,2C,2 | 
[V:12] z8 | 
[V:1] c4z2c2- | 
[V:2] E4F4 | 
[V:3] G4A4 | 
[V:4] G2G2F4 | 
[V:5] z8 | 
[V:6] z8 | 
[V:7] z8 | 
[V:8] z8 | 
[V:9] z8 | 
[V:10] z8 | 
[V:11] C,4F,,4 | 
[V:12] z8 | 
[V:1] c2A2A4- | 
[V:2] E2D4^C2 | 
[V:3] G2F2E4 | 
[V:4] G2D2A4 | 
[V:5] z8 | 
[V:6] z8 | 
[V:7] z8 | 
[V:8] z8 | 
[V:9] z8 | 
[V:10] z8 | 
[V:11] C,2D,2A,,4 | 
[V:12] z8 | 
[V:1] A4z4 | 
[V:2] D4z4 | 
[V:3] D4z4 | 
[V:4] F4z4 | 
[V:5] z8 | 
[V:6] z8 | 
[V:7] z8 | 
[V:8] z8 | 
[V:9] z8 | 
[V:10] z8 | 
[V:11] D,4z4 | 
[V:12] z8 | 
[V:1] A4B4 | 
[V:2] F4G4 | 
[V:3] d4d2d2- | 
[V:4] F4D3E | 
[V:5] z8 | 
[V:6] z8 | 
[V:7] z8 | 
[V:8] z8 | 
[V:9] z8 | 
[V:10] z8 | 
[V:11] D,4G,,2D,2- | 
[V:12] z8 | 
[V:1] A2B4A2 | 
[V:2] F2G4F2 | 
[V:3] d2d2d4 | 
[V:4] F2D3EF2 | 
[V:5] z8 | 
[V:6] z8 | 
[V:7] z8 | 
[V:8] z8 | 
[V:9] z8 | 
[V:10] z8 | 
[V:11] D,2G,,2D,4 | 
[V:12] z8 | 
[V:1] B4B4 | 
[V:2] G4G4- | 
[V:3] d4d4 | 
[V:4] D4d4- | 
[V:5] z8 | 
[V:6] z8 | 
[V:7] z8 | 
[V:8] z8 | 
[V:9] z8 | 
[V:10] z8 | 
[V:11] G,,4G,,4 | 
[V:12] z8 | 
[V:1] A8 | 
[V:2] G2FEF4 | 
[V:3] d8 | 
[V:4] d2cBA4 | 
[V:5] z8 | 
[V:6] z8 | 
[V:7] z8 | 
[V:8] z8 | 
[V:9] z8 | 
[V:10] z8 | 
[V:11] D,8 | 
[V:12] z8 | 
[V:1] z8 | 
[V:2] z8 | 
[V:3] z8 | 
[V:4] z8 | 
[V:5] c4c2c2- | 
[V:6] e4e2e2- | 
[V:7] z8 | 
[V:8] z8 | 
[V:9] G4G2G2- | 
[V:10] C,4C,2C,2- | 
[V:11] z8 | 
[V:12] z8 | 
[V:1] z8 | 
[V:2] z8 | 
[V:3] z8 | 
[V:4] z8 | 
[V:5] c2c2c2c2 | 
[V:6] e2e2e2e2 | 
[V:7] z8 | 
[V:8] z8 | 
[V:9] G2G2G2G2 | 
[V:10] C,2C,2C,2C,2 | 
[V:11] z8 | 
[V:12] z8 | 
[V:1] z8 | 
[V:2] z8 | 
[V:3] z8 | 
[V:4] z8 | 
[V:5] c4z2c2- | 
[V:6] e4f4 | 
[V:7] z8 | 
[V:8] z8 | 
[V:9] G4A4 | 
[V:10] C,4F,,4 | 
[V:11] z8 | 
[V:12] z8 | 
[V:1] z8 | 
[V:2] z8 | 
[V:3] z8 | 
[V:4] z8 | 
[V:5] c2A2A4- | 
[V:6] e2d4^c2 | 
[V:7] z8 | 
[V:8] z8 | 
[V:9] G2F2E4 | 
[V:10] C,2D,2A,,4 | 
[V:11] z8 | 
[V:12] z8 | 
[V:1] z8 | 
[V:2] z8 | 
[V:3] z8 | 
[V:4] z8 | 
[V:5] A4z4 | 
[V:6] d4z4 | 
[V:7] z8 | 
[V:8] z8 | 
[V:9] D4z4 | 
[V:10] D,4z4 | 
[V:11] z8 | 
[V:12] z8 | 
[V:1] z8 | 
[V:2] z8 | 
[V:3] z8 | 
[V:4] z8 | 
[V:5] A4B4 | 
[V:6] d4d2d2- | 
[V:7] z8 | 
[V:8] z8 | 
[V:9] F4G4 | 
[V:10] D,4G,,2D,2- | 
[V:11] z8 | 
[V:12] z8 | 
[V:1] z8 | 
[V:2] z8 | 
[V:3] z8 | 
[V:4] z8 | 
[V:5] A2B4A2 | 
[V:6] d2d2d4 | 
[V:7] z8 | 
[V:8] z8 | 
[V:9] F2G4F2 | 
[V:10] D,2G,,2D,4 | 
[V:11] z8 | 
[V:12] z8 | 
[V:1] z8 | 
[V:2] z8 | 
[V:3] z8 | 
[V:4] z8 | 
[V:5] B4B4 | 
[V:6] d4d4 | 
[V:7] z8 | 
[V:8] z8 | 
[V:9] G4G4- | 
[V:10] G,,4G,,4 | 
[V:11] z8 | 
[V:12] z8 | 
[V:1] z8 | 
[V:2] z8 | 
[V:3] z8 | 
[V:4] z8 | 
[V:5] A8 | 
[V:6] d8 | 
[V:7] z8 | 
[V:8] z8 | 
[V:9] G2FEF4 | 
[V:10] D,8 | 
[V:11] z8 | 
[V:12] z8 | 
[V:1] A4_B4 | 
[V:2] [D4d4][D4d4] | 
[V:3] F4G4 | 
[V:4] z8 | 
[V:5] z8 | 
[V:6] z8 | 
[V:7] z8 | 
[V:8] z8 | 
[V:9] z8 | 
[V:10] z8 | 
[V:11] D,4G,,4 | 
[V:12] z8 | 
[V:1] A4F2G2 | 
[V:2] [D8d8] | 
[V:3] F4D2E2 | 
[V:4] A4_B4 | 
[V:5] z8 | 
[V:6] z8 | 
[V:7] z8 | 
[V:8] z8 | 
[V:9] z8 | 
[V:10] z8 | 
[V:11] D,8 | 
[V:12] z8 | 
[V:1] A4A2G2- | 
[V:2] [D4d4][D4d4] | 
[V:3] F2G2A2B2- | 
[V:4] A4F2G2 | 
[V:5] z8 | 
[V:6] z8 | 
[V:7] z8 | 
[V:8] z8 | 
[V:9] z8 | 
[V:10] z8 | 
[V:11] D,4D,2G,,2 | 
[V:12] z8 | 
[V:1] G2^F2G4 | 
[V:2] [D8d8] | 
[V:3] BAAGB4 | 
[V:4] A2A2G4 | 
[V:5] z8 | 
[V:6] z8 | 
[V:7] z8 | 
[V:8] z8 | 
[V:9] z8 | 
[V:10] z8 | 
[V:11] D,4G,,4 | 
[V:12] z8 | 
[V:1] z8 | 
[V:2] z8 | 
[V:3] z8 | 
[V:4] z8 | 
[V:5] d4d4 | 
[V:6] A4_B4 | 
[V:7] z8 | 
[V:8] z8 | 
[V:9] z8 | 
[V:10] D,4G,,4 | 
[V:11] z8 | 
[V:12] z8 | 
[V:1] z8 | 
[V:2] z8 | 
[V:3] z8 | 
[V:4] z8 | 
[V:5] d8 | 
[V:6] A4F2G2 | 
[V:7] z8 | 
[V:8] z8 | 
[V:9] z2A4_B2 | 
[V:10] D,8 | 
[V:11] z8 | 
[V:12] z8 | 
[V:1] z8 | 
[V:2] z8 | 
[V:3] z8 | 
[V:4] z8 | 
[V:5] d4d4 | 
[V:6] A4A2G2- | 
[V:7] z8 | 
[V:8] z8 | 
[V:9] A2F4G2 | 
[V:10] D,4D,2G,,2 | 
[V:11] z8 | 
[V:12] z8 | 
[V:1] z8 | 
[V:2] z8 | 
[V:3] z8 | 
[V:4] z8 | 
[V:5] d8 | 
[V:6] G2^F2G4 | 
[V:7] z8 | 
[V:8] z8 | 
[V:9] A4=B4 | 
[V:10] D,4G,,4 | 
[V:11] z8 | 
[V:12] z8 | 
[V:1] E2F2G2G2 | 
[V:2] G4c2c2 | 
[V:3] C2D2E2E2 | 
[V:4] G4G2G2 | 
[V:5] z8 | 
[V:6] z8 | 
[V:7] z8 | 
[V:8] z8 | 
[V:9] z8 | 
[V:10] z8 | 
[V:11] C,4C,2C,2 | 
[V:12] z8 | 
[V:1] G2G2G4 | 
[V:2] B2B2c4 | 
[V:3] D2D2E4 | 
[V:4] B2B2G4 | 
[V:5] z8 | 
[V:6] z8 | 
[V:7] z8 | 
[V:8] z8 | 
[V:9] z8 | 
[V:10] z8 | 
[V:11] G,,2G,,2C,4 | 
[V:12] z8 | 
[V:1] G4A4 | 
[V:2] z2c2c4 | 
[V:3] z2E2F4 | 
[V:4] z2c2c2F2 | 
[V:5] z8 | 
[V:6] z8 | 
[V:7] z8 | 
[V:8] z8 | 
[V:9] z8 | 
[V:10] z8 | 
[V:11] z2C,2F,,4 | 
[V:12] z8 | 
[V:1] G2F2E4 | 
[V:2] c2B2A4 | 
[V:3] E2D4^C2 | 
[V:4] G2D2A4- | 
[V:5] z8 | 
[V:6] z8 | 
[V:7] z8 | 
[V:8] z8 | 
[V:9] z8 | 
[V:10] z8 | 
[V:11] C,2D,2A,,4 | 
[V:12] z8 | 
[V:1] D4z4 | 
[V:2] A4z4 | 
[V:3] D4z4 | 
[V:4] A4z4 | 
[V:5] z4G4 | 
[V:6] z4E2F2 | 
[V:7] z8 | 
[V:8] z8 | 
[V:9] z4c2d2 | 
[V:10] z4C,4 | 
[V:11] D,4z4 | 
[V:12] z8 | 
[V:1] z8 | 
[V:2] z8 | 
[V:3] z8 | 
[V:4] z8 | 
[V:5] c2c2B2B2 | 
[V:6] G4G2G2 | 
[V:7] z8 | 
[V:8] z8 | 
[V:9] e4d2d2 | 
[V:10] C,2C,2G,,2G,,2 | 
[V:11] z8 | 
[V:12] z8 | 
[V:1] z8 | 
[V:2] z8 | 
[V:3] z8 | 
[V:4] z8 | 
[V:5] c4z2c2 | 
[V:6] G4G4 | 
[V:7] z8 | 
[V:8] z8 | 
[V:9] e4z2e2 | 
[V:10] C,4z2C,2 | 
[V:11] z8 | 
[V:12] z8 | 
[V:1] z8 | 
[V:2] z8 | 
[V:3] z8 | 
[V:4] z8 | 
[V:5] c4c2B2 | 
[V:6] A4G2F2 | 
[V:7] z8 | 
[V:8] z8 | 
[V:9] f4e2d2- | 
[V:10] F,,4C,2D,2 | 
[V:11] z8 | 
[V:12] z8 | 
[V:1] z4A4 | 
[V:2] z4F4 | 
[V:3] z4[D4d4] | 
[V:4] z8 | 
[V:5] A4A4 | 
[V:6] E4D4 | 
[V:7] z8 | 
[V:8] z8 | 
[V:9] d2^c2d4 | 
[V:10] A,,4D,4 | 
[V:11] z4D,4 | 
[V:12] z8 | 
[V:1] _B4A4 | 
[V:2] G4F4 | 
[V:3] [D4d4][D4d4] | 
[V:4] z4A4 | 
[V:5] z8 | 
[V:6] z8 | 
[V:7] z8 | 
[V:8] z8 | 
[V:9] z8 | 
[V:10] z8 | 
[V:11] G,,4D,4 | 
[V:12] z8 | 
[V:1] F2G2A4 | 
[V:2] D2E2F2G2 | 
[V:3] [D8d8] | 
[V:4] _B4A4 | 
[V:5] z8 | 
[V:6] z8 | 
[V:7] z8 | 
[V:8] z8 | 
[V:9] z8 | 
[V:10] z8 | 
[V:11] D,4D,4 | 
[V:12] z8 | 
[V:1] A2G4^F2 | 
[V:2] A2B3AAG | 
[V:3] [D4d4][D4d4] | 
[V:4] F2G2A2A2 | 
[V:5] z8 | 
[V:6] z8 | 
[V:7] z8 | 
[V:8] z8 | 
[V:9] z8 | 
[V:10] z8 | 
[V:11] D,2G,,2D,4 | 
[V:12] z8 | 
[V:1] G4z4 | 
[V:2] B4z4 | 
[V:3] [D8d8] | 
[V:4] G4z4 | 
[V:5] d8 | 
[V:6] z4A4 | 
[V:7] z8 | 
[V:8] z8 | 
[V:9] z8 | 
[V:10] z4D,4 | 
[V:11] G,,4z4 | 
[V:12] z8 | 
[V:1] z8 | 
[V:2] z8 | 
[V:3] z8 | 
[V:4] z8 | 
[V:5] d4d4 | 
[V:6] _B4A4 | 
[V:7] z8 | 
[V:8] z8 | 
[V:9] z4z2A2- | 
[V:10] G,,4D,4 | 
[V:11] z8 | 
[V:12] z8 | 
[V:1] z8 | 
[V:2] z8 | 
[V:3] z8 | 
[V:4] z8 | 
[V:5] d8 | 
[V:6] F2G2A4 | 
[V:7] z8 | 
[V:8] z8 | 
[V:9] A2_B2A2F2- | 
[V:10] D,4D,4 | 
[V:11] z8 | 
[V:12] z8 | 
[V:1] z8 | 
[V:2] z8 | 
[V:3] z8 | 
[V:4] z8 | 
[V:5] d4d4 | 
[V:6] A2G4^F2 | 
[V:7] z8 | 
[V:8] z8 | 
[V:9] F2G2A4 | 
[V:10] D,2G,,2D,4 | 
[V:11] z8 | 
[V:12] z8 | 
[V:1] z8 | 
[V:2] z8 | 
[V:3] z8 | 
[V:4] z8 | 
[V:5] d8 | 
[V:6] G8 | 
[V:7] z8 | 
[V:8] z8 | 
[V:9] G4z4 | 
[V:10] G,,8 | 
[V:11] z8 | 
[V:12] z8 | 
[V:1] A8 | 
[V:2] c4A4 | 
[V:3] F8 | 
[V:4] f8 | 
[V:5] A4F4- | 
[V:6] c8 | 
[V:7] F8 | 
[V:8] A8 | 
[V:9] F3GA4 | 
[V:10] A,,4C,4 | 
[V:11] F,,8 | 
[V:12] C,8 | 
[V:1] _B8- | 
[V:2] d8- | 
[V:3] D8 | 
[V:4] f8 | 
[V:5] F4F4 | 
[V:6] F4_B4- | 
[V:7] F4D4- | 
[V:8] F8 | 
[V:9] D4d4- | 
[V:10] _B,,4D,4- | 
[V:11] _B,,6A,,2 | 
[V:12] D,8 | 
[V:1] B8 | 
[V:2] d8 | 
[V:3] G8 | 
[V:4] _B8 | 
[V:5] _B3cd2D2 | 
[V:6] B2A2G4 | 
[V:7] D4D4 | 
[V:8] G8 | 
[V:9] d4d4 | 
[V:10] D,2C,2_B,,4 | 
[V:11] G,,8 | 
[V:12] _B,,8 | 
[V:1] A8 | 
[V:2] z4A4- | 
[V:3] c6B2 | 
[V:4] f4f4 | 
[V:5] A2=B2c4 | 
[V:6] c6=B2 | 
[V:7] F6G2 | 
[V:8] A6B2 | 
[V:9] A4F4- | 
[V:10] z2F,,2C,4- | 
[V:11] F,,8- | 
[V:12] C,8 | 
[V:1] F4A4 | 
[V:2] A4A4 | 
[V:3] A2G2F4 | 
[V:4] f8 | 
[V:5] C4F4 | 
[V:6] A4z4 | 
[V:7] A4A4 | 
[V:8] c8 | 
[V:9] F2EDC4 | 
[V:10] C,4C,4 | 
[V:11] F,,8 | 
[V:12] F,8 | 
[V:1] G8 | 
[V:2] d8- | 
[V:3] z4G4 | 
[V:4] z4d4- | 
[V:5] z2=B2G2d2- | 
[V:6] D6E2 | 
[V:7] =B8 | 
[V:8] G4d4- | 
[V:9] G8 | 
[V:10] B,,4D,4 | 
[V:11] G,,8 | 
[V:12] D,8 | 
[V:1] F8 | 
[V:2] d8- | 
[V:3] A8 | 
[V:4] d4d4 | 
[V:5] d2cBA4 | 
[V:6] F4D4- | 
[V:7] A8 | 
[V:8] d4d4 | 
[V:9] z4D4 | 
[V:10] z4D,4- | 
[V:11] D,8 | 
[V:12] D,8- | 
[V:1] G8- | 
[V:2] d8- | 
[V:3] B8- | 
[V:4] B6AG | 
[V:5] z2d4G2 | 
[V:6] D8- | 
[V:7] G8- | 
[V:8] d8- | 
[V:9] G6A2 | 
[V:10] D,4B,,4 | 
[V:11] G,,8- | 
[V:12] D,8- | 
[V:1] G8 ||  
[V:2] d8 ||  
[V:3] B8 ||  
[V:4] d8 ||  
[V:5] G8 ||  
[V:6] D8 ||  
[V:7] G8 ||  
[V:8] d8 ||  
[V:9] =B8 ||  
[V:10] G,,8 & D,8 ||  
[V:11] G,,8 ||  
[V:12] D,8 ||  
[V:1]  [K:C] [K:clef=treble][M:2/1]G4G2G2 | 
[V:2]  [K:C] [K:clef=treble][M:2/1]z4B4 | 
[V:3]  [K:C] [K:clef=treble][M:2/1]d4d2d2 | 
[V:4]  [K:C] [K:clef=treble-8][M:2/1]d4B2G2 | 
[V:5]  [K:C] [K:clef=treble-8][M:2/1]d4d2d2 | 
[V:6]  [K:C] [K:clef=treble-8][M:2/1]B4B2B2 | 
[V:7]  [K:C] [K:clef=treble-8][M:2/1]z8 | 
[V:8]  [K:C] [K:clef=treble-8][M:2/1]z8 | 
[V:9]  [K:C] [K:clef=treble-8][M:2/1]G4G2G2 | 
[V:10]  [K:C] [K:clef=bass][M:2/1]G,4G,2G,2 | 
[V:11]  [K:C] [K:clef=bass][M:2/1]G,,4G,,2G,,2 | 
[V:12]  [K:C] [K:clef=bass][M:2/1]D,8- | 
[V:1] G4F3G | 
[V:2] B2B2B2d2- | 
[V:3] d4z2A2 | 
[V:4] d3cdef2 | 
[V:5] d4d4 | 
[V:6] B2d4cB | 
[V:7] z8 | 
[V:8] z8 | 
[V:9] G2B4AG | 
[V:10] D,3E,F,2D,2- | 
[V:11] G,,4D,3E, | 
[V:12] D,8 | 
[V:1] A2A3GFE | 
[V:2] d2cBA4 | 
[V:3] A2A2d4- | 
[V:4] z2d2d3c/B/ | 
[V:5] d2d2d2d2- | 
[V:6] A4A4 | 
[V:7] z8 | 
[V:8] z8 | 
[V:9] F4D3E | 
[V:10] D,E,F,G,A,2D,2 | 
[V:11] F,2D,3E,F,G, | 
[V:12] D,8- | 
[V:1] D2A2^F3G/F/ | 
[V:2] z8 | 
[V:3] d2d2d4 | 
[V:4] A2A2d4 | 
[V:5] d2cBA4 | 
[V:6] A2A2A2A2 | 
[V:7] z8 | 
[V:8] z8 | 
[V:9] FGA2D2A2 | 
[V:10] z2F,4D,2 | 
[V:11] A,2D,2D,4 | 
[V:12] D,8 | 
[V:1] G4z2B2 | 
[V:2] B2B2B2G2- | 
[V:3] z2d2d2d2 | 
[V:4] z2D2D2D2 | 
[V:5] z2d3cBA | 
[V:6] G4z2G2 | 
[V:7] z8 | 
[V:8] d8- | 
[V:9] B2G2B4 | 
[V:10] D,2G,2G,2G,2 | 
[V:11] G,,8- | 
[V:12] B,,8- | 
[V:1] B2B2G4 | 
[V:2] G2d4B2 | 
[V:3] B4B2B2 | 
[V:4] G3FGAB2- | 
[V:5] G4z2G2 | 
[V:6] G2G2D2G2 | 
[V:7] z8 | 
[V:8] d8 | 
[V:9] z2G2G2G2 | 
[V:10] D,2G,2G,F,G,A, | 
[V:11] G,,8- | 
[V:12] B,,8 | 
[V:1] d4B2G2- | 
[V:2] G4d4 | 
[V:3] B2G4d2- | 
[V:4] BABcd2d2 | 
[V:5] G2G2D2G2 | 
[V:6] GFGAB4 | 
[V:7] z8 | 
[V:8] d8- | 
[V:9] D2G2GFGA | 
[V:10] B,4G,4 | 
[V:11] G,,8 | 
[V:12] D,8 | 
[V:1] G2G3AB2- | 
[V:2] B4z4 | 
[V:3] d2B4G2- | 
[V:4] G3F/E/D2d2 | 
[V:5] GFGAB4 | 
[V:6] G4z4 | 
[V:7] z8 | 
[V:8] d8 | 
[V:9] B4G4 | 
[V:10] G,,8 | 
[V:11] z4z2G,2 | 
[V:12] D,4D,4 | 
[V:1] B2G2z4 | 
[V:2] B4B2B2- | 
[V:3] G2FEE4 | 
[V:4] z2g4fe | 
[V:5] G4z4 | 
[V:6] z4z2G2- | 
[V:7] G8- | 
[V:8] B8- | 
[V:9] z2e4dc | 
[V:10] z2G,3F,G,A, | 
[V:11] G,F,G,A,B,4 | 
[V:12] E,8- | 
[V:1] z2G2G2G2 | 
[V:2] B2B2B4 | 
[V:3] z8 | 
[V:4] d2g2e3f | 
[V:5] z2G3FGA | 
[V:6] GFGAB4 | 
[V:7] G8- | 
[V:8] B8 | 
[V:9] B2e4dc | 
[V:10] B,4G,4 | 
[V:11] G,4z4 | 
[V:12] E,8 | 
[V:1] D2G3FGA | 
[V:2] z8 | 
[V:3] z4z2G2 | 
[V:4] g4z4 | 
[V:5] B4z2B2 | 
[V:6] B2B2G2d2 | 
[V:7] G8- | 
[V:8] d8- | 
[V:9] B4B2B2 | 
[V:10] z2G,2D,2G,2- | 
[V:11] G,,8- | 
[V:12] D,8- | 
[V:1] B2d4d2 | 
[V:2] z2G2G2G2 | 
[V:3] G2G2D2G2- | 
[V:4] z2B2B2G2 | 
[V:5] B2G2d2d2 | 
[V:6] d2B2G4 | 
[V:7] G8 | 
[V:8] d8 | 
[V:9] G2d2d2B2 | 
[V:10] G,2F,E,G,2G,2 | 
[V:11] G,,8 | 
[V:12] D,8 | 
[V:1] d2d2G2d2 | 
[V:2] D2G3FGA | 
[V:3] GFGAB4 | 
[V:4] d2d2B2G2 | 
[V:5] B2G2d3c | 
[V:6] z2D4D2 | 
[V:7] G8- | 
[V:8] d8- | 
[V:9] G4z2B2 | 
[V:10] G,,8- | 
[V:11] z2D,2D,2G,2- | 
[V:12] D,8- | 
[V:1] dcBAB2B2 | 
[V:2] B3cd2G2- | 
[V:3] G3GG2G2- | 
[V:4] z2B3cd2 | 
[V:5] BAG2z2G2 | 
[V:6] D2D2G4 | 
[V:7] G8 | 
[V:8] d8 | 
[V:9] B2B2B2B2 | 
[V:10] G,,8 | 
[V:11] G,2F,E,D,4 | 
[V:12] D,8 | 
[V:1] c2c4c2 | 
[V:2] G2e4e2 | 
[V:3] GDG4G2 | 
[V:4] G2c3BG2 | 
[V:5] c3cc2c2 | 
[V:6] G2E3FG2 | 
[V:7] E8- | 
[V:8] e8- | 
[V:9] G4E3F | 
[V:10] G,4G,2E,2- | 
[V:11] C,8- | 
[V:12] z8 | 
[V:1] c4z2G2 | 
[V:2] e2e2c4 | 
[V:3] G2c3dec | 
[V:4] g4z2g2 | 
[V:5] c8 | 
[V:6] C2c3BGA | 
[V:7] E8 | 
[V:8] e8 | 
[V:9] G2C2z2C2 | 
[V:10] E,F,G,2C,4 | 
[V:11] C,8 | 
[V:12] z8 | 
[V:1] GABcd4 | 
[V:2] z2d2G3A | 
[V:3] B4B2G2- | 
[V:4] g4g4 | 
[V:5] z4d3c | 
[V:6] B2d3cBA | 
[V:7] G8- | 
[V:8] d8- | 
[V:9] G3FD2D2- | 
[V:10] D,4B,,3C, | 
[V:11] G,,8- | 
[V:12] z8 | 
[V:1] d2B4AG | 
[V:2] Bcd4cB | 
[V:3] GABcd2G2 | 
[V:4] g2g2gfd2 | 
[V:5] BAGFD3E | 
[V:6] G2D2z2B2 | 
[V:7] G8 | 
[V:8] d8- | 
[V:9] D2D2G4 | 
[V:10] D,2G,,2D,4 | 
[V:11] G,,8 | 
[V:12] z8 | 
[V:1] F2A4A2 | 
[V:2] A2d4cB | 
[V:3] z2F3GA2- | 
[V:4] z2a2a2f2 | 
[V:5] F4D2F2- | 
[V:6] d3c/B/A4 | 
[V:7] A8- | 
[V:8] d8- | 
[V:9] D2D2F3G | 
[V:10] z2F,2F,2D,2 | 
[V:11] D,8- | 
[V:12] z8 | 
[V:1] d3c/B/A2A2 | 
[V:2] A4d4 | 
[V:3] AG^FEF4 | 
[V:4] d2d3ef2 | 
[V:5] FGA2D2d2 | 
[V:6] z2F3DD2 | 
[V:7] A8 | 
[V:8] d8 | 
[V:9] A2D2A4 | 
[V:10] F,3G,A,2D,2 | 
[V:11] D,8 | 
[V:12] z8 | 
[V:1] B8- | 
[V:2] d8- | 
[V:3] G8- | 
[V:4] d4z4 | 
[V:5] B4z4 | 
[V:6] D4z2G2 | 
[V:7] G8- | 
[V:8] d8- | 
[V:9] z8 | 
[V:10] z2G,2G,2D,2 | 
[V:11] G,,8 | 
[V:12] z8 | 
[V:1] B4z4 | 
[V:2] d8 | 
[V:3] G8 | 
[V:4] z8 | 
[V:5] z4z2G2 | 
[V:6] G2D2G3A | 
[V:7] G8- | 
[V:8] d8- | 
[V:9] z2G2G2D2 | 
[V:10] G,3A,B,3C | 
[V:11] G,,8 | 
[V:12] z8 | 
[V:1] z4z2G2 | 
[V:2] z8 | 
[V:3] z8 | 
[V:4] z2G2G2D2 | 
[V:5] G2D2G3A | 
[V:6] B3cd4 | 
[V:7] G8- | 
[V:8] d8- | 
[V:9] G3AB3c | 
[V:10] D4D,4 | 
[V:11] G,,4G,,4 | 
[V:12] D,8- | 
[V:1] G2D2G3A | 
[V:2] z2G2G2D2 | 
[V:3] z4z2G2 | 
[V:4] G3AB3c | 
[V:5] B3cd4 | 
[V:6] D8- | 
[V:7] G8 | 
[V:8] d8- | 
[V:9] d4G4 | 
[V:10] D,8- | 
[V:11] G,,4G,,4 | 
[V:12] D,8 | 
[V:1] B3cd4 | 
[V:2] G3AB3c | 
[V:3] G2D2G3A | 
[V:4] d8- | 
[V:5] B8- | 
[V:6] D8- | 
[V:7] G8- | 
[V:8] d8- | 
[V:9] G8- | 
[V:10] D,8- | 
[V:11] G,,4G,,4 | 
[V:12] D,8- | 
[V:1] G8- | 
[V:2] d4B4 | 
[V:3] B3cd4 | 
[V:4] d8- | 
[V:5] B8- | 
[V:6] D8- | 
[V:7] G8- | 
[V:8] d8- | 
[V:9] G8- | 
[V:10] D,8- | 
[V:11] G,,8- | 
[V:12] D,8- | 
[V:1] G8 ||  
[V:2] B8 ||  
[V:3] d8 ||  
[V:4] d8 ||  
[V:5] B8 ||  
[V:6] D8 ||  
[V:7] G8 ||  
[V:8] d8 ||  
[V:9] G8 ||  
[V:10] D,8 ||  
[V:11] G,,8 ||  
[V:12] D,8 ||  
[V:1]  [K:C] [K:clef=treble][M:2/1]d4d2d2 | 
[V:2]  [K:C] [K:clef=treble][M:2/1]A4A2A2 | 
[V:3]  [K:C] [K:clef=treble][M:2/1]F4F2F2 | 
[V:4]  [K:C] [K:clef=treble-8][M:2/1]z8 | 
[V:5]  [K:C] [K:clef=treble-8][M:2/1]z8 | 
[V:6]  [K:C] [K:clef=treble-8][M:2/1]A4A2A2 | 
[V:7]  [K:C] [K:clef=treble-8][M:2/1]z8 | 
[V:8]  [K:C] [K:clef=treble-8][M:2/1]z8 | 
[V:9]  [K:C] [K:clef=treble-8][M:2/1]F4F2F2 | 
[V:10]  [K:C] [K:clef=bass][M:2/1]z8 | 
[V:11]  [K:C] [K:clef=bass][M:2/1]D,4D,2D,2 | 
[V:12]  [K:C] [K:clef=bass][M:2/1]z8 | 
[V:1] B4d4 | 
[V:2] G4B4 | 
[V:3] D4G4 | 
[V:4] z8 | 
[V:5] z8 | 
[V:6] B4B4 | 
[V:7] z8 | 
[V:8] z8 | 
[V:9] G4G4 | 
[V:10] z8 | 
[V:11] G,,4G,,4 | 
[V:12] z8 | 
[V:1] e4d4 | 
[V:2] c4A4 | 
[V:3] G4F4 | 
[V:4] z8 | 
[V:5] z8 | 
[V:6] A4A4 | 
[V:7] z8 | 
[V:8] z8 | 
[V:9] E4F4 | 
[V:10] z8 | 
[V:11] C,4D,4 | 
[V:12] z8 | 
[V:1] d8- | 
[V:2] B6AG | 
[V:3] G4D4 | 
[V:4] z8 | 
[V:5] z8 | 
[V:6] G4z2G2 | 
[V:7] z8 | 
[V:8] z8 | 
[V:9] D4z2d2- | 
[V:10] z8 | 
[V:11] G,,8 | 
[V:12] z8 | 
[V:1] d8 | 
[V:2] A8 | 
[V:3] F8 | 
[V:4] z8 | 
[V:5] z8 | 
[V:6] F2D2d4 | 
[V:7] z8 | 
[V:8] z8 | 
[V:9] d2cBA4 | 
[V:10] z8 | 
[V:11] D,8 | 
[V:12] z8 | 
[V:1] z8 | 
[V:2] z8 | 
[V:3] z8 | 
[V:4] d4d2d2 | 
[V:5] G4G2G2 | 
[V:6] z8 | 
[V:7] d4B2B2 | 
[V:8] B4B2B2 | 
[V:9] z8 | 
[V:10] G,,4G,,2G,,2 | 
[V:11] z8 | 
[V:12] D,4D,2D,2 | 
[V:1] z8 | 
[V:2] z8 | 
[V:3] z8 | 
[V:4] e4d2g2- | 
[V:5] E4G4 | 
[V:6] z8 | 
[V:7] G4B4 | 
[V:8] c4d4 | 
[V:9] z8 | 
[V:10] C,4G,,4 | 
[V:11] z8 | 
[V:12] C,2G,4D,2 | 
[V:1] z8 | 
[V:2] z8 | 
[V:3] z8 | 
[V:4] g2^f2g4 | 
[V:5] A4G4 | 
[V:6] z8 | 
[V:7] A4B4 | 
[V:8] d4d4 | 
[V:9] z8 | 
[V:10] D,4G,,4 | 
[V:11] z8 | 
[V:12] F,3E,D,4 | 
[V:1] z8 | 
[V:2] z8 | 
[V:3] z8 | 
[V:4] z2c2e2f2 | 
[V:5] G8- | 
[V:6] z8 | 
[V:7] c8 | 
[V:8] e4c4 | 
[V:9] z8 | 
[V:10] C,6B,,A,, | 
[V:11] z8 | 
[V:12] C,4G,4- | 
[V:1] z8 | 
[V:2] z8 | 
[V:3] z8 | 
[V:4] g8 | 
[V:5] G8 | 
[V:6] z8 | 
[V:7] B8 | 
[V:8] d8 | 
[V:9] z8 | 
[V:10] G,,8 | 
[V:11] z8 | 
[V:12] G,2F,E,D,4 | 
[V:1] d4d2d2 | 
[V:2] A4A2A2 | 
[V:3] F4F2F2 | 
[V:4] z8 | 
[V:5] z8 | 
[V:6] A4A2A2 | 
[V:7] z8 | 
[V:8] z8 | 
[V:9] F4F2F2 | 
[V:10] z8 | 
[V:11] D,4D,2D,2 | 
[V:12] z8 | 
[V:1] B4d4 | 
[V:2] G4B4 | 
[V:3] D4G4 | 
[V:4] z8 | 
[V:5] z8 | 
[V:6] B4B4 | 
[V:7] z8 | 
[V:8] z8 | 
[V:9] G4G4 | 
[V:10] z8 | 
[V:11] G,,4G,,4 | 
[V:12] z8 | 
[V:1] e4d4 | 
[V:2] c4A4 | 
[V:3] G4F4 | 
[V:4] z8 | 
[V:5] z8 | 
[V:6] A4A4 | 
[V:7] z8 | 
[V:8] z8 | 
[V:9] E4F4 | 
[V:10] z8 | 
[V:11] C,4D,4 | 
[V:12] z8 | 
[V:1] d8- | 
[V:2] B6AG | 
[V:3] G4D4 | 
[V:4] z8 | 
[V:5] z8 | 
[V:6] G4z2G2 | 
[V:7] z8 | 
[V:8] z8 | 
[V:9] D4z2d2- | 
[V:10] z8 | 
[V:11] G,,8 | 
[V:12] z8 | 
[V:1] d8 | 
[V:2] A8 | 
[V:3] F8 | 
[V:4] z8 | 
[V:5] z8 | 
[V:6] F2D2d4 | 
[V:7] z8 | 
[V:8] z8 | 
[V:9] d2cBA4 | 
[V:10] z8 | 
[V:11] D,8 | 
[V:12] z8 | 
[V:1] z8 | 
[V:2] z8 | 
[V:3] z8 | 
[V:4] g4g2g2 | 
[V:5] G4G2G2 | 
[V:6] z8 | 
[V:7] d4d2d2 | 
[V:8] B4B2B2 | 
[V:9] z8 | 
[V:10] G,,4G,,2G,,2 | 
[V:11] z8 | 
[V:12] D,4D,2D,2 | 
[V:1] z8 | 
[V:2] z8 | 
[V:3] z8 | 
[V:4] g4z2g2 | 
[V:5] E4G4 | 
[V:6] z8 | 
[V:7] e4c4 | 
[V:8] c4z2c2- | 
[V:9] z8 | 
[V:10] C,4C,4 | 
[V:11] z8 | 
[V:12] C,4E,4 | 
[V:1] z8 | 
[V:2] z8 | 
[V:3] z8 | 
[V:4] f2f2g4 | 
[V:5] A4G4 | 
[V:6] z8 | 
[V:7] A4c4 | 
[V:8] c2d3cc2- | 
[V:9] z8 | 
[V:10] F,,4C,4 | 
[V:11] z8 | 
[V:12] F,4E,4 | 
[V:1] z8 | 
[V:2] z8 | 
[V:3] z8 | 
[V:4] z2g2d2g2- | 
[V:5] G8- | 
[V:6] z8 | 
[V:7] d6ed | 
[V:8] c2BAB4 | 
[V:9] z8 | 
[V:10] G,,8 | 
[V:11] z8 | 
[V:12] D,8 | 
[V:1] z8 | 
[V:2] z8 | 
[V:3] z8 | 
[V:4] gfede2c2 | 
[V:5] G8- | 
[V:6] z8 | 
[V:7] e4c4 | 
[V:8] c8 | 
[V:9] z8 | 
[V:10] C,6B,,A,, | 
[V:11] z8 | 
[V:12] C,6G,2- | 
[V:1] z4B4 | 
[V:2] z4d4 | 
[V:3] z4G4 | 
[V:4] g8 | 
[V:5] G8 | 
[V:6] z4G4 | 
[V:7] d8 | 
[V:8] B8 | 
[V:9] z4D4 | 
[V:10] G,,8 | 
[V:11] z4G,,4 | 
[V:12] G,2F,E,D,4 | 
[V:1] B4B4- | 
[V:2] d4d4- | 
[V:3] G4G4- | 
[V:4] g4g2g2- | 
[V:5] z8 | 
[V:6] G4D4 | 
[V:7] z8 | 
[V:8] z8 | 
[V:9] D4G4 | 
[V:10] z8 | 
[V:11] G,,4G,,4- | 
[V:12] z8 | 
[V:1] B4B4 | 
[V:2] d4d4 | 
[V:3] G4G4- | 
[V:4] g2fed4 | 
[V:5] z8 | 
[V:6] G6F2 | 
[V:7] z8 | 
[V:8] z8 | 
[V:9] D8 | 
[V:10] z8 | 
[V:11] G,,4G,,4 | 
[V:12] z8 | 
[V:1] c8 | 
[V:2] e8 | 
[V:3] G4G4 | 
[V:4] z4g4- | 
[V:5] z8 | 
[V:6] E2D2C4 | 
[V:7] z8 | 
[V:8] z8 | 
[V:9] C2D2E2F2 | 
[V:10] z8 | 
[V:11] C,8 | 
[V:12] z8 | 
[V:1] B8 | 
[V:2] d8 | 
[V:3] G8 | 
[V:4] g2fed4 | 
[V:5] z8 | 
[V:6] D8 | 
[V:7] z8 | 
[V:8] z8 | 
[V:9] G8 | 
[V:10] z8 | 
[V:11] G,,8 | 
[V:12] z8 | 
[V:1] z8 | 
[V:2] z8 | 
[V:3] z8 | 
[V:4] z4A4 | 
[V:5] d4d2d2 | 
[V:6] z8 | 
[V:7] A8 | 
[V:8] f4d2d2 | 
[V:9] z8 | 
[V:10] D,4D,2D,2 | 
[V:11] z8 | 
[V:12] F,4F,2F,2 | 
[V:1] z8 | 
[V:2] z8 | 
[V:3] z8 | 
[V:4] c2d2e4 | 
[V:5] c4c4 | 
[V:6] z8 | 
[V:7] A4G4 | 
[V:8] e4e4 | 
[V:9] z8 | 
[V:10] A,,4C,4 | 
[V:11] z8 | 
[V:12] E,4E,4 | 
[V:1] z8 | 
[V:2] z8 | 
[V:3] z8 | 
[V:4] z2A2c3d | 
[V:5] f4f2e2- | 
[V:6] z8 | 
[V:7] F2A4GF | 
[V:8] d4c4- | 
[V:9] z8 | 
[V:10] D,4A,,4 | 
[V:11] z8 | 
[V:12] A,8 | 
[V:1] z8 | 
[V:2] z8 | 
[V:3] z8 | 
[V:4] e4z2A2 | 
[V:5] e4d4- | 
[V:6] z8 | 
[V:7] E4z2A2- | 
[V:8] c4A4- | 
[V:9] z8 | 
[V:10] C,4D,4 | 
[V:11] z8 | 
[V:12] G,4F,4 | 
[V:1] z8 | 
[V:2] z8 | 
[V:3] z8 | 
[V:4] c3de4 | 
[V:5] d2^cB^c4 | 
[V:6] z8 | 
[V:7] ABc3BAG | 
[V:8] A4A4 | 
[V:9] z8 | 
[V:10] A,,8 | 
[V:11] z8 | 
[V:12] E,8 | 
[V:1] z4d4 | 
[V:2] z8 | 
[V:3] z4G4 | 
[V:4] f4z4 | 
[V:5] d4z4 | 
[V:6] z4G4 | 
[V:7] F4z4 | 
[V:8] A4z4 | 
[V:9] z4D4 | 
[V:10] D,4z4 | 
[V:11] z4G,,4 | 
[V:12] D,4z4 | 
[V:1] c2A2B2G2 | 
[V:2] z4d4 | 
[V:3] E2F2D2G2 | 
[V:4] z8 | 
[V:5] z8 | 
[V:6] A4G4 | 
[V:7] z8 | 
[V:8] z8 | 
[V:9] E2D4D2 | 
[V:10] z8 | 
[V:11] C,2D,2G,,2B,,2 | 
[V:12] z8 | 
[V:1] A2F2G4 | 
[V:2] c2A2B2G2 | 
[V:3] E2F2D2G2 | 
[V:4] z8 | 
[V:5] z8 | 
[V:6] C2C2G4 | 
[V:7] z8 | 
[V:8] z8 | 
[V:9] E2C2D3E | 
[V:10] z8 | 
[V:11] A,,4G,,4 | 
[V:12] z8 | 
[V:1] c4B2A2- | 
[V:2] A2F2G2c2- | 
[V:3] C2A2B2c2 | 
[V:4] z8 | 
[V:5] z8 | 
[V:6] z2C2G2AB | 
[V:7] z8 | 
[V:8] z8 | 
[V:9] F4z2F2- | 
[V:10] z8 | 
[V:11] F,,2A,,2G,,2F,,2- | 
[V:12] z8 | 
[V:1] AGG4^F2 | 
[V:2] c2B2A4 | 
[V:3] A2d4d2 | 
[V:4] z8 | 
[V:5] z8 | 
[V:6] c2G2A4 | 
[V:7] z8 | 
[V:8] z8 | 
[V:9] F2D2D4 | 
[V:10] z8 | 
[V:11] F,,2G,,2D,4 | 
[V:12] z8 | 
[V:1] G8 | 
[V:2] B8 | 
[V:3] d8 | 
[V:4] z4d4 | 
[V:5] z8 | 
[V:6] G8 | 
[V:7] z4G4 | 
[V:8] z4G4 | 
[V:9] D8 | 
[V:10] z4G,,4 | 
[V:11] G,,8 | 
[V:12] z4D,4 | 
[V:1] z8 | 
[V:2] z8 | 
[V:3] z8 | 
[V:4] c2A2B2G2 | 
[V:5] z4d4 | 
[V:6] z8 | 
[V:7] A4G4 | 
[V:8] E2F2D2G2 | 
[V:9] z8 | 
[V:10] C,2D,2G,,2B,,2 | 
[V:11] z8 | 
[V:12] E,2D,4D,2 | 
[V:1] z8 | 
[V:2] z8 | 
[V:3] z8 | 
[V:4] A2F2G4 | 
[V:5] c2A2B2G2 | 
[V:6] z8 | 
[V:7] C2C2G4 | 
[V:8] E2F2D2G2 | 
[V:9] z8 | 
[V:10] A,,4G,,4 | 
[V:11] z8 | 
[V:12] E,2C,2D,3E, | 
[V:1] z8 | 
[V:2] z8 | 
[V:3] z8 | 
[V:4] c4B2A2- | 
[V:5] A2F2G2c2- | 
[V:6] z8 | 
[V:7] z2C2G2AB | 
[V:8] C2A2B2c2 | 
[V:9] z8 | 
[V:10] F,,2A,,2G,,2F,,2- | 
[V:11] z8 | 
[V:12] F,4z2F,2- | 
[V:1] z8 | 
[V:2] z8 | 
[V:3] z8 | 
[V:4] AGG4^F2 | 
[V:5] c2B2A4 | 
[V:6] z8 | 
[V:7] c2G2A4 | 
[V:8] A2d4d2 | 
[V:9] z8 | 
[V:10] F,,2G,,2D,4 | 
[V:11] z8 | 
[V:12] F,2D,2D,4 | 
[V:1] z8 | 
[V:2] z8 | 
[V:3] z8 | 
[V:4] G8 | 
[V:5] B8 | 
[V:6] z8 | 
[V:7] G8 | 
[V:8] d8 | 
[V:9] z8 | 
[V:10] G,,8 | 
[V:11] z8 | 
[V:12] D,8 | 
[V:1] z4d4 | 
[V:2] z4A4 | 
[V:3] z4F4 | 
[V:4] z8 | 
[V:5] z8 | 
[V:6] z4d4 | 
[V:7] z8 | 
[V:8] z8 | 
[V:9] z4A4 | 
[V:10] z8 | 
[V:11] z4D,4 | 
[V:12] z8 | 
[V:1] d4d4 | 
[V:2] A4A4 | 
[V:3] F4F4 | 
[V:4] z8 | 
[V:5] z8 | 
[V:6] d4A4 | 
[V:7] z8 | 
[V:8] z8 | 
[V:9] A4d4 | 
[V:10] z8 | 
[V:11] D,4D,4 | 
[V:12] z8 | 
[V:1] d8 | 
[V:2] A8 | 
[V:3] F8 | 
[V:4] z8 | 
[V:5] z8 | 
[V:6] d8 | 
[V:7] z8 | 
[V:8] z8 | 
[V:9] A8 | 
[V:10] z8 | 
[V:11] D,8 | 
[V:12] z8 | 
[V:1] z8 | 
[V:2] z8 | 
[V:3] z8 | 
[V:4] z4e4 | 
[V:5] z4c4 | 
[V:6] z8 | 
[V:7] z4E4 | 
[V:8] z4A4 | 
[V:9] z8 | 
[V:10] z4A,,4 | 
[V:11] z8 | 
[V:12] z4C,4 | 
[V:1] z8 | 
[V:2] z8 | 
[V:3] z8 | 
[V:4] e4e4 | 
[V:5] c4c4 | 
[V:6] z8 | 
[V:7] E4E4 | 
[V:8] A4A4 | 
[V:9] z8 | 
[V:10] A,,4A,,4 | 
[V:11] z8 | 
[V:12] C,4C,4 | 
[V:1] z8 | 
[V:2] z8 | 
[V:3] z8 | 
[V:4] e8 | 
[V:5] c8 | 
[V:6] z8 | 
[V:7] E8 | 
[V:8] A8 | 
[V:9] z8 | 
[V:10] A,,8 | 
[V:11] z8 | 
[V:12] C,8 | 
[V:1] d8 | 
[V:2] z8 | 
[V:3] A4_B4 | 
[V:4] z8 | 
[V:5] z8 | 
[V:6] D4D2G2- | 
[V:7] z8 | 
[V:8] z8 | 
[V:9] z8 | 
[V:10] z8 | 
[V:11] D,4B,,2G,,2 | 
[V:12] z8 | 
[V:1] c4B4- | 
[V:2] z4d4- | 
[V:3] A4D4 | 
[V:4] z8 | 
[V:5] z8 | 
[V:6] G2^F2G4 | 
[V:7] z8 | 
[V:8] z8 | 
[V:9] z4D4 | 
[V:10] z8 | 
[V:11] A,,4G,,4 | 
[V:12] z8 | 
[V:1] B2AGA4 | 
[V:2] d4c4 | 
[V:3] z2D2E2F2 | 
[V:4] z8 | 
[V:5] z8 | 
[V:6] z8 | 
[V:7] z8 | 
[V:8] z8 | 
[V:9] G2G4F2 | 
[V:10] z8 | 
[V:11] z8 | 
[V:12] z8 | 
[V:1] G4d4 | 
[V:2] B6AG | 
[V:3] D4G4 | 
[V:4] z8 | 
[V:5] z8 | 
[V:6] G4D2G2- | 
[V:7] z8 | 
[V:8] z8 | 
[V:9] G3AB4 | 
[V:10] z8 | 
[V:11] G,,8 | 
[V:12] z8 | 
[V:1] c4B2A2- | 
[V:2] A4G2F2 | 
[V:3] C4z2c2 | 
[V:4] z8 | 
[V:5] z8 | 
[V:6] GEF2D2C2 | 
[V:7] z8 | 
[V:8] z8 | 
[V:9] z2A2B2c2 | 
[V:10] z8 | 
[V:11] z2F,,2G,,2A,,2 | 
[V:12] z8 | 
[V:1] A2G4^F2 | 
[V:2] G4A4 | 
[V:3] B2d3cA2 | 
[V:4] z8 | 
[V:5] z8 | 
[V:6] D8- | 
[V:7] z8 | 
[V:8] z8 | 
[V:9] G2B2A2d2- | 
[V:10] z8 | 
[V:11] B,,2G,,2D,4 | 
[V:12] z8 | 
[V:1] G8 | 
[V:2] G8 | 
[V:3] B8 | 
[V:4] d8 | 
[V:5] z8 | 
[V:6] D8 | 
[V:7] G4B4 | 
[V:8] D4D2G2- | 
[V:9] dcBAG4 | 
[V:10] G,,8 | 
[V:11] G,,8 | 
[V:12] z8 | 
[V:1] z8 | 
[V:2] z8 | 
[V:3] z8 | 
[V:4] c4B4- | 
[V:5] z4d4- | 
[V:6] z8 | 
[V:7] A4D2G2- | 
[V:8] G2^F2G4 | 
[V:9] z8 | 
[V:10] A,,4G,,4- | 
[V:11] z8 | 
[V:12] z4D,4 | 
[V:1] z8 | 
[V:2] z8 | 
[V:3] z8 | 
[V:4] B2AGA4 | 
[V:5] d4c4 | 
[V:6] z8 | 
[V:7] GAB2c2A2 | 
[V:8] z8 | 
[V:9] z8 | 
[V:10] G,,4z4 | 
[V:11] z8 | 
[V:12] D,2G,4^F,2 | 
[V:1] z8 | 
[V:2] z8 | 
[V:3] z8 | 
[V:4] G4d4 | 
[V:5] B6AG | 
[V:6] z8 | 
[V:7] d4G4 | 
[V:8] D6G2- | 
[V:9] z8 | 
[V:10] G,,8 | 
[V:11] z8 | 
[V:12] G,4D,4 | 
[V:1] z8 | 
[V:2] z8 | 
[V:3] z8 | 
[V:4] c4B2A2- | 
[V:5] A4G2c2- | 
[V:6] z8 | 
[V:7] z4d2c2 | 
[V:8] G2F2G2C2- | 
[V:9] z8 | 
[V:10] z4G,,2A,,2 | 
[V:11] z8 | 
[V:12] z4G,2E,2 | 
[V:1] z8 | 
[V:2] z8 | 
[V:3] z8 | 
[V:4] AGG4^F2 | 
[V:5] c2B2A4 | 
[V:6] z8 | 
[V:7] A2d4d2 | 
[V:8] C2G2A4 | 
[V:9] z8 | 
[V:10] F,,2G,,2D,4 | 
[V:11] z8 | 
[V:12] F,2D,2D,4 | 
[V:1] z8 | 
[V:2] z8 | 
[V:3] z8 | 
[V:4] G4z4 | 
[V:5] G8 | 
[V:6] z8 | 
[V:7] d8 | 
[V:8] B8 | 
[V:9] z8 | 
[V:10] G,,8 | 
[V:11] z8 | 
[V:12] D,8 | 
[V:1] B4B2d2- | 
[V:2] d2d2B2G2 | 
[V:3] G2G2GGD2 | 
[V:4] B2B2G2d2 | 
[V:5] d2d2d2B2 | 
[V:6] G3GG2G2 | 
[V:7] z8 | 
[V:8] d8- | 
[V:9] D2D2D3E | 
[V:10] G,,4G,,4 | 
[V:11] z2B,2B,3A,/G,/ | 
[V:12] z8 | 
[V:1] d2d2d4 | 
[V:2] A2B3cd2- | 
[V:3] z2G3GG2 | 
[V:4] d2B2G4 | 
[V:5] A2G3FDE | 
[V:6] D2B2B3A/G/ | 
[V:7] z8 | 
[V:8] d8 | 
[V:9] F2D2d3c/B/ | 
[V:10] D,2G,,2G,,4 | 
[V:11] F,2G,2D,2G,,2 | 
[V:12] z8 | 
[V:1] z2D2D2DE | 
[V:2] dcBAG4 | 
[V:3] A2B3ABc | 
[V:4] D2G3FG2 | 
[V:5] F2D2d3c/B/ | 
[V:6] F2G2D2G,2 | 
[V:7] z8 | 
[V:8] d8- | 
[V:9] A2G2z2d2- | 
[V:10] D,2G,,4G,,2 | 
[V:11] z2B,2B,3A,/G,/ | 
[V:12] z8 | 
[V:1] FDG3^FFE | 
[V:2] A2Bcd4 | 
[V:3] d4z2d2 | 
[V:4] D2d3cA2 | 
[V:5] A2G2A4 | 
[V:6] z2D4F2 | 
[V:7] z8 | 
[V:8] d8 | 
[V:9] dcB2A4 | 
[V:10] D,2G,,2z2D,2- | 
[V:11] F,2G,2D,4 | 
[V:12] z8 | 
[V:1] G2G2G2G2 | 
[V:2] z2d2d3c | 
[V:3] d3cB3c | 
[V:4] z2d2d2d2 | 
[V:5] B4z2G2 | 
[V:6] D2D2G4 | 
[V:7] G8- | 
[V:8] B8 | 
[V:9] z2G2G2D2 | 
[V:10] D,2D,4D,2 | 
[V:11] G,,2G,,2G,,2G,,2 | 
[V:12] z8 | 
[V:1] G2G2G2G2 | 
[V:2] B3cd2d2 | 
[V:3] d2d2B2B2 | 
[V:4] d2d2d4 | 
[V:5] G2D2G3A | 
[V:6] D4z2d2- | 
[V:7] G8 | 
[V:8] B4B4 | 
[V:9] G3AB4 | 
[V:10] D,2D,2D,4 | 
[V:11] G,,2G,,2G,,4 | 
[V:12] z8 | 
[V:1] d2d2B2B2 | 
[V:2] B2B2G2G2 | 
[V:3] G2G2d2d2 | 
[V:4] z2d3cBA | 
[V:5] B4z2G2 | 
[V:6] dcBABGd2- | 
[V:7] G8- | 
[V:8] d8- | 
[V:9] z2G2B3c | 
[V:10] G,,8- | 
[V:11] z2D,2D,D,G,2- | 
[V:12] z8 | 
[V:1] G2GAB2B2 | 
[V:2] d2d2B2B2 | 
[V:3] B2B2G2G2 | 
[V:4] BGd3cBG | 
[V:5] B3cd4 | 
[V:6] dcBAd2G2 | 
[V:7] G8 | 
[V:8] d8 | 
[V:9] d2G3AB2 | 
[V:10] G,,8 | 
[V:11] G,2D,2D,2G,2- | 
[V:12] z8 | 
[V:1] c2c2e2e2 | 
[V:2] G2G2z2G2 | 
[V:3] z2G2c3B | 
[V:4] c4z2g2- | 
[V:5] G2gfedc2 | 
[V:6] z2c2c2c2 | 
[V:7] E8- | 
[V:8] e8- | 
[V:9] E2G6 | 
[V:10] z2C,2C,D,E,F, | 
[V:11] G,2E,2G,2E,2- | 
[V:12] C,8- | 
[V:1] e2e2e2e2 | 
[V:2] c3BG2G2 | 
[V:3] G2G2c3B | 
[V:4] gfedecg2- | 
[V:5] z2g3fed | 
[V:6] c2c2c2c2 | 
[V:7] E8 | 
[V:8] e8 | 
[V:9] G4z2E2 | 
[V:10] G,2G,2C,4 | 
[V:11] E,2C,2z2C,2 | 
[V:12] C,8 | 
[V:1] e2e2c2c2 | 
[V:2] c3BG2G2 | 
[V:3] G2G2cBcd | 
[V:4] gfedecg2- | 
[V:5] ecg3fed | 
[V:6] c2c2c2c2 | 
[V:7] G8- | 
[V:8] e8- | 
[V:9] E3EE2E2 | 
[V:10] z8 | 
[V:11] C,D,E,F,G,2G,2 | 
[V:12] C,8- | 
[V:1] c2c2c4 | 
[V:2] cBcde4 | 
[V:3] e2z2c2c2 | 
[V:4] gfedc4 | 
[V:5] ecg3fed | 
[V:6] c2c2c4 | 
[V:7] G8 | 
[V:8] e8 | 
[V:9] EEEEE4 | 
[V:10] z8 | 
[V:11] C,4z4 | 
[V:12] C,8 | 
[V:1] z4z2c2 | 
[V:2] A2A2A2A2 | 
[V:3] cBcde4 | 
[V:4] z8 | 
[V:5] c2z2c2c2 | 
[V:6] c2c2A3G/F/ | 
[V:7] A8- | 
[V:8] e8- | 
[V:9] z4c2c2 | 
[V:10] z4z2A,,2 | 
[V:11] z2A,,2C,B,,C,D, | 
[V:12] A,,8- | 
[V:1] c2cBcde2 | 
[V:2] A2A2A4 | 
[V:3] z4z2c2- | 
[V:4] c2c2A3G/F/ | 
[V:5] c2c2c2c2 | 
[V:6] E4z4 | 
[V:7] A8 | 
[V:8] e8- | 
[V:9] A3G/F/E4 | 
[V:10] C,B,,C,D,E,4 | 
[V:11] E,4z2C,2 | 
[V:12] A,,8 | 
[V:1] c2e4e2 | 
[V:2] z4z2c2- | 
[V:3] c2c2c2c2 | 
[V:4] E4z2c2- | 
[V:5] c8- | 
[V:6] z8 | 
[V:7] G8- | 
[V:8] e8- | 
[V:9] z8 | 
[V:10] z2C,2E,D,E,F, | 
[V:11] E,D,E,F,G,4 | 
[V:12] C,8- | 
[V:1] e2c2z2G2 | 
[V:2] c2c2c2c2 | 
[V:3] G8- | 
[V:4] cde2c2g2- | 
[V:5] c8 | 
[V:6] z4z2E2 | 
[V:7] G8- | 
[V:8] e8 | 
[V:9] z8 | 
[V:10] G,4z4 | 
[V:11] z2E,2G,F,G,A, | 
[V:12] C,8 | 
[V:1] d2d2d4 | 
[V:2] B8- | 
[V:3] G8 | 
[V:4] g2d2z2g2- | 
[V:5] z4G2G2 | 
[V:6] GFGAB4 | 
[V:7] G8- | 
[V:8] d8- | 
[V:9] G2G2D2D2 | 
[V:10] G,,2G,,2G,,2G,,2 | 
[V:11] B,4z2G,2 | 
[V:12] D,8- | 
[V:1] z4B3c | 
[V:2] B4z4 | 
[V:3] z8 | 
[V:4] g2g2g2g2 | 
[V:5] D2D2G2G2 | 
[V:6] z2G2B2BA | 
[V:7] G8 | 
[V:8] d8 | 
[V:9] G2G2D2D2 | 
[V:10] G,,2G,,2G,,2G,,2 | 
[V:11] B,A,B,CD2D2 | 
[V:12] D,8- | 
[V:1] d2d2B3c | 
[V:2] G3ABcd2- | 
[V:3] B3cd2d2 | 
[V:4] g4g4 | 
[V:5] D2D2G4- | 
[V:6] Bcd2G4 | 
[V:7] G8- | 
[V:8] d8- | 
[V:9] G2d3cBA | 
[V:10] G,,4z2G,2- | 
[V:11] G,4G,,2G,,2 | 
[V:12] D,8- | 
[V:1] d2d2G4 | 
[V:2] dcBAB2B2 | 
[V:3] B3cd2d2 | 
[V:4] g2g2g4 | 
[V:5] G2B6 | 
[V:6] z8 | 
[V:7] G8- | 
[V:8] d8 | 
[V:9] B2G2d4 | 
[V:10] G,2F,E,D,4 | 
[V:11] G,,2G,,2G,,2G,,2 | 
[V:12] D,8 | 
[V:1] z2c4c2 | 
[V:2] c4z2c2- | 
[V:3] G4z2c2- | 
[V:4] z4z2e2- | 
[V:5] G4c4 | 
[V:6] z2E3FG2 | 
[V:7] G8- | 
[V:8] z8 | 
[V:9] e8 | 
[V:10] z4E,3F, | 
[V:11] C,2C,2C,4 | 
[V:12] C,8- | 
[V:1] G2G2c2c2 | 
[V:2] c2c2G2G2 | 
[V:3] cde2e2c2- | 
[V:4] efg2g2e2- | 
[V:5] z4c3d | 
[V:6] G2E3FG2 | 
[V:7] G8- | 
[V:8] z8 | 
[V:9] c3de2e2 | 
[V:10] G,2G,2E,3F, | 
[V:11] E,3F,G,2G,2 | 
[V:12] C,8 | 
[V:1] G2G2c4 | 
[V:2] c2c2G2G2 | 
[V:3] cde2e2c2 | 
[V:4] efg2g2c2 | 
[V:5] e2e2c3d | 
[V:6] G2C2z4 | 
[V:7] G8- | 
[V:8] z8 | 
[V:9] c3de2e2 | 
[V:10] G,2G,2C,4 | 
[V:11] E,3F,G,2G,2 | 
[V:12] C,8- | 
[V:1] z2c2G2G2 | 
[V:2] c4z2c2 | 
[V:3] z4c2c2- | 
[V:4] z4e2e2- | 
[V:5] e2e2c4 | 
[V:6] E2E3FG2 | 
[V:7] G8 | 
[V:8] z8 | 
[V:9] c4z2c2 | 
[V:10] z2E,2E,3F, | 
[V:11] C,4z2E,2 | 
[V:12] C,8- | 
[V:1] c2c2G4 | 
[V:2] G2G2c2c2 | 
[V:3] cde2e2c2 | 
[V:4] efg2g2c2 | 
[V:5] z2c2c3d | 
[V:6] G2C2z2C2 | 
[V:7] z8 | 
[V:8] z8 | 
[V:9] c3de2e2 | 
[V:10] G,2G,2C,4 | 
[V:11] E,3F,G,2G,2 | 
[V:12] C,8 | 
[V:1] z2c3BGA | 
[V:2] G4z4 | 
[V:3] z2e2e2e2 | 
[V:4] z2c2G2G2 | 
[V:5] e2e2c4 | 
[V:6] G4E4 | 
[V:7] z8 | 
[V:8] z8 | 
[V:9] c4z4 | 
[V:10] z2E,3F,G,2- | 
[V:11] C,8 | 
[V:12] z8 | 
[V:1] B3cd2G2- | 
[V:2] G8 | 
[V:3] B8 | 
[V:4] d8- | 
[V:5] B4G2d2- | 
[V:6] D8 | 
[V:7] z8 | 
[V:8] z8 | 
[V:9] d4B4 | 
[V:10] G,2F,E,D,4 | 
[V:11] G,,8 | 
[V:12] z8 | 
[V:1] G2^FEF2F2 | 
[V:2] A4A4 | 
[V:3] d8 | 
[V:4] d8 | 
[V:5] d2cBA2d2- | 
[V:6] F8 | 
[V:7] z8 | 
[V:8] z8 | 
[V:9] A8 | 
[V:10] z4D,4 | 
[V:11] D,4D,4 | 
[V:12] z8 | 
[V:1] [M:3/1]G8z4 | 
[V:2] [M:3/1]B8z4 | 
[V:3] [M:3/1]d8z4 | 
[V:4] [M:3/1]B8z4 | 
[V:5] d4B4B4 | 
[V:6] [M:3/1]D8z4 | 
[V:7] [M:3/1]z12 | 
[V:8] [M:3/1]z12 | 
[V:9] [M:3/1]G8z4 | 
[V:10] [M:3/1]D,8z4 | 
[V:11] [M:3/1]G,,8z4 | 
[V:12] [M:3/1]z12 | 
[V:1] G8G4- | 
[V:2] B8G4- | 
[V:3] d8d4- | 
[V:4] z12 | 
[V:5] [M:3/1]z12 | 
[V:6] G8B4- | 
[V:7] z12 | 
[V:8] z12 | 
[V:9] D8D4- | 
[V:10] z12 | 
[V:11] G,,8G,,4- | 
[V:12] z12 | 
[V:1] G4^F8 | 
[V:2] G4A8 | 
[V:3] d4d8 | 
[V:4] z12 | 
[V:5] z12 | 
[V:6] B4A8 | 
[V:7] z12 | 
[V:8] z12 | 
[V:9] D4F8 | 
[V:10] z12 | 
[V:11] G,,4D,8 | 
[V:12] z12 | 
[V:1] G8z4 | 
[V:2] B8z4 | 
[V:3] d8z4 | 
[V:4] g8g4- | 
[V:5] d8d4- | 
[V:6] G8z4 | 
[V:7] G8B4 | 
[V:8] B8G4- | 
[V:9] D8z4 | 
[V:10] G,,8G,,4- | 
[V:11] G,,8z4 | 
[V:12] D,8D,4- | 
[V:1] z12 | 
[V:2] z12 | 
[V:3] z12 | 
[V:4] g4^f8 | 
[V:5] d4d8 | 
[V:6] z12 | 
[V:7] d6cBA4 | 
[V:8] G4A8 | 
[V:9] z12 | 
[V:10] G,,4D,8 | 
[V:11] z12 | 
[V:12] D,4F,8 | 
[V:1] G8A4 | 
[V:2] B8c4 | 
[V:3] D4G4C2C2 | 
[V:4] g8z4 | 
[V:5] d8z4 | 
[V:6] B8A4 | 
[V:7] B8z4 | 
[V:8] G8z4 | 
[V:9] D8F4 | 
[V:10] G,,8z4 | 
[V:11] G,,8F,,4 | 
[V:12] D,8z4 | 
[V:1] B4c8 | 
[V:2] B4A8 | 
[V:3] G4z4C4 | 
[V:4] z12 | 
[V:5] d8c4 | 
[V:6] G6^FE^F4 | 
[V:7] z12 | 
[V:8] z12 | 
[V:9] D8C4 | 
[V:10] z12 | 
[V:11] G,,4A,,8 | 
[V:12] z12 | 
[V:1] B8z4 | 
[V:2] D8z4 | 
[V:3] G8z4 | 
[V:4] g8c4 | 
[V:5] B4G4A4 | 
[V:6] G8z4 | 
[V:7] G8E4 | 
[V:8] B8A4 | 
[V:9] D8z4 | 
[V:10] G,,8A,,4 | 
[V:11] G,,8z4 | 
[V:12] D,4B,,4C,4 | 
[V:1] z12 | 
[V:2] z12 | 
[V:3] z12 | 
[V:4] g8e4 | 
[V:5] B8z4 | 
[V:6] z12 | 
[V:7] G4E4C4 | 
[V:8] B4c8 | 
[V:9] z12 | 
[V:10] G,,4C,8 | 
[V:11] z12 | 
[V:12] D,4E,8 | 
[V:1] z4z4G4 | 
[V:2] z12 | 
[V:3] B4B2A2B2c2 | 
[V:4] g8z4 | 
[V:5] z12 | 
[V:6] G4B6A2 | 
[V:7] G8z4 | 
[V:8] d8z4 | 
[V:9] z4z4D4 | 
[V:10] G,,8z4 | 
[V:11] z4z4G,,4 | 
[V:12] D,8z4 | 
[V:1] B6A2B2c2 | 
[V:2] z4z4G4 | 
[V:3] d6c2B2A2 | 
[V:4] z12 | 
[V:5] z12 | 
[V:6] B2c2d4z4 | 
[V:7] z12 | 
[V:8] z12 | 
[V:9] D4G6G2 | 
[V:10] z12 | 
[V:11] G,,8G,,4 | 
[V:12] z12 | 
[V:1] d6c2B2A2 | 
[V:2] B6A2B2c2 | 
[V:3] G4G6FE | 
[V:4] z12 | 
[V:5] z12 | 
[V:6] d4G4d4- | 
[V:7] z12 | 
[V:8] z12 | 
[V:9] G4D4G4- | 
[V:10] z12 | 
[V:11] G,,4G,,8 | 
[V:12] z12 | 
[V:1] B4A8 | 
[V:2] d4c8 | 
[V:3] D4A8 | 
[V:4] z12 | 
[V:5] z12 | 
[V:6] d4A4c4 | 
[V:7] z12 | 
[V:8] z12 | 
[V:9] G4E4F4 | 
[V:10] z12 | 
[V:11] G,,4A,,4F,,4 | 
[V:12] z12 | 
[V:1] G8^F4 | 
[V:2] B4A8 | 
[V:3] B2c2d8 | 
[V:4] z12 | 
[V:5] z12 | 
[V:6] G4A8 | 
[V:7] z12 | 
[V:8] z12 | 
[V:9] D12 | 
[V:10] z12 | 
[V:11] G,,4D,8 | 
[V:12] z12 | 
[V:1] G8z4 | 
[V:2] B8z4 | 
[V:3] d8z4 | 
[V:4] d4d2c2d2e2 | 
[V:5] B4B2B2B2B2 | 
[V:6] G8z4 | 
[V:7] B4G2G2d2d2 | 
[V:8] G4G2G2G2G2 | 
[V:9] D8z4 | 
[V:10] G,,4G,,2A,,2B,,2C,2 | 
[V:11] G,,8z4 | 
[V:12] D,4D,2D,2D,2D,2 | 
[V:1] z12 | 
[V:2] z12 | 
[V:3] z12 | 
[V:4] f4e6d2 | 
[V:5] A2B2c2d2e4 | 
[V:6] z12 | 
[V:7] d4c4c4 | 
[V:8] F4A4G4 | 
[V:9] z12 | 
[V:10] D,4A,,4C,4 | 
[V:11] z12 | 
[V:12] D,4E,4E,4 | 
[V:1] z12 | 
[V:2] z12 | 
[V:3] z12 | 
[V:4] d8^c4 | 
[V:5] A4e8 | 
[V:6] z12 | 
[V:7] A4A8 | 
[V:8] F4E8 | 
[V:9] z12 | 
[V:10] D,4A,,8 | 
[V:11] z12 | 
[V:12] A,6B,2C4 | 
[V:1] z12 | 
[V:2] z12 | 
[V:3] z12 | 
[V:4] d6e2f2d2 | 
[V:5] f8d4- | 
[V:6] z12 | 
[V:7] A4d6B2 | 
[V:8] D8d4 | 
[V:9] z12 | 
[V:10] D,6C,2B,,4 | 
[V:11] z12 | 
[V:12] F,4D,4z4 | 
[V:1] z12 | 
[V:2] z12 | 
[V:3] z12 | 
[V:4] g6^f2^f2e2 | 
[V:5] d12 | 
[V:6] z12 | 
[V:7] B4A8 | 
[V:8] d6cBA4 | 
[V:9] z12 | 
[V:10] G,,4D,8 | 
[V:11] z12 | 
[V:12] D,6E,2F,4 | 
[V:1] z4z4G4 | 
[V:2] z4z4d4 | 
[V:3] z4z4B4 | 
[V:4] g8z4 | 
[V:5] d8z4 | 
[V:6] z4z4G4 | 
[V:7] G8z4 | 
[V:8] B8z4 | 
[V:9] z4z4D4 | 
[V:10] G,,8z4 | 
[V:11] z4z4G,,4 | 
[V:12] D,8z4 | 
[V:1] G8^F4 | 
[V:2] d4d8 | 
[V:3] B4A6BA | 
[V:4] z12 | 
[V:5] z12 | 
[V:6] G4A8 | 
[V:7] z12 | 
[V:8] z12 | 
[V:9] D4F6D2 | 
[V:10] z12 | 
[V:11] G,,4D,8 | 
[V:12] z12 | 
[V:1] G8z4 | 
[V:2] d8z4 | 
[V:3] B8z4 | 
[V:4] z4z4g4 | 
[V:5] z4z4d4 | 
[V:6] G8z4 | 
[V:7] z4z4G4 | 
[V:8] z4z4B4 | 
[V:9] D8z4 | 
[V:10] z4z4G,,4 | 
[V:11] G,,8z4 | 
[V:12] z4z4D,4 | 
[V:1] z12 | 
[V:2] z12 | 
[V:3] z12 | 
[V:4] g8^f4 | 
[V:5] d4d8 | 
[V:6] z12 | 
[V:7] G4A8 | 
[V:8] B4d2c2A4 | 
[V:9] z12 | 
[V:10] G,,4D,8 | 
[V:11] z12 | 
[V:12] D,4F,8 | 
[V:1] z4z4G4 | 
[V:2] B4B2A2B2c2 | 
[V:3] z12 | 
[V:4] g8z4 | 
[V:5] d8z4 | 
[V:6] z4z4D4 | 
[V:7] G8z4 | 
[V:8] B8z4 | 
[V:9] G4B6A2 | 
[V:10] G,,8z4 | 
[V:11] z4z4G,,4 | 
[V:12] D,8z4 | 
[V:1] B6A2B2c2 | 
[V:2] d6c2B2A2 | 
[V:3] z4z4G4 | 
[V:4] z12 | 
[V:5] z12 | 
[V:6] D4G6G2 | 
[V:7] z12 | 
[V:8] z12 | 
[V:9] B2c2d4z4 | 
[V:10] z12 | 
[V:11] G,,6G,,2G,,2G,,2 | 
[V:12] z12 | 
[V:1] d6c2B2A2 | 
[V:2] G4G6FE | 
[V:3] B6A2B2c2 | 
[V:4] z12 | 
[V:5] z12 | 
[V:6] G4D4G4- | 
[V:7] z12 | 
[V:8] z12 | 
[V:9] d4G4d4- | 
[V:10] z12 | 
[V:11] G,,8G,,4- | 
[V:12] z12 | 
[V:1] B4A8 | 
[V:2] D4A8 | 
[V:3] d4c8 | 
[V:4] z12 | 
[V:5] z12 | 
[V:6] G4E4F4 | 
[V:7] z12 | 
[V:8] z12 | 
[V:9] d4A4c4 | 
[V:10] z12 | 
[V:11] G,,4A,,4F,,4 | 
[V:12] z12 | 
[V:1] G8^F4 | 
[V:2] B2c2d8 | 
[V:3] B4A8 | 
[V:4] z12 | 
[V:5] z12 | 
[V:6] D12 | 
[V:7] z12 | 
[V:8] z12 | 
[V:9] G4A8 | 
[V:10] z12 | 
[V:11] G,,4D,8 | 
[V:12] z12 | 
[V:1] G8z4 | 
[V:2] d8z4 | 
[V:3] B8z4 | 
[V:4] d4d2c2d2e2 | 
[V:5] B4B2B2B2B2 | 
[V:6] D8z4 | 
[V:7] B4G2G2d2d2 | 
[V:8] G4G2G2G2G2 | 
[V:9] G8z4 | 
[V:10] G,,4G,,2A,,2B,,2C,2 | 
[V:11] G,,8z4 | 
[V:12] D,4D,2D,2D,2D,2 | 
[V:1] z12 | 
[V:2] z12 | 
[V:3] z12 | 
[V:4] f4e6d2 | 
[V:5] A2B2c2d2e4 | 
[V:6] z12 | 
[V:7] d4c4c4 | 
[V:8] F4A4G4 | 
[V:9] z12 | 
[V:10] D,4A,,4C,4 | 
[V:11] z12 | 
[V:12] D,4E,8 | 
[V:1] z12 | 
[V:2] z12 | 
[V:3] z12 | 
[V:4] d8^c4 | 
[V:5] A4e8 | 
[V:6] z12 | 
[V:7] A4A8 | 
[V:8] F4E8 | 
[V:9] z12 | 
[V:10] D,4A,,8 | 
[V:11] z12 | 
[V:12] A,6B,2C4 | 
[V:1] z12 | 
[V:2] z12 | 
[V:3] z12 | 
[V:4] d6e2f2d2 | 
[V:5] f8d4- | 
[V:6] z12 | 
[V:7] A4d6c2 | 
[V:8] D8d4 | 
[V:9] z12 | 
[V:10] D,6C,2B,,4 | 
[V:11] z12 | 
[V:12] F,4D,4z4 | 
[V:1] z12 | 
[V:2] z12 | 
[V:3] z12 | 
[V:4] g6^f2^f2e2 | 
[V:5] d12 | 
[V:6] z12 | 
[V:7] B4A8 | 
[V:8] d6cBA4 | 
[V:9] z12 | 
[V:10] G,,4D,8 | 
[V:11] z12 | 
[V:12] D,6E,2F,4 | 
[V:1] d6cBA4 | 
[V:2] z12 | 
[V:3] z12 | 
[V:4] g8^f4 | 
[V:5] d8z4 | 
[V:6] G8D4 | 
[V:7] G8z4 | 
[V:8] B8z4 | 
[V:9] B6c2d4 | 
[V:10] G,,8z4 | 
[V:11] G,,8D,4 | 
[V:12] D,4D,4F,4 | 
[V:1] G8^F4 | 
[V:2] d6cBA4 | 
[V:3] z12 | 
[V:4] g4d8 | 
[V:5] z12 | 
[V:6] G4A4A4 | 
[V:7] z12 | 
[V:8] z12 | 
[V:9] B4A4d4- | 
[V:10] z12 | 
[V:11] G,,4D,4D,4 | 
[V:12] D,4F,4F,4 | 
[V:1] G4z4z4 | 
[V:2] G8^F4 | 
[V:3] d6cBA4 | 
[V:4] d8z4 | 
[V:5] G8D4 | 
[V:6] B8z4 | 
[V:7] D8F4 | 
[V:8] B6c2d4 | 
[V:9] d4G4z4 | 
[V:10] G,,8D,4 | 
[V:11] G,,8z4 | 
[V:12] D,8z4 | 
[V:1] z12 | 
[V:2] G4z4z4 | 
[V:3] G8^F4 | 
[V:4] d8d4 | 
[V:5] G4A4A4 | 
[V:6] z12 | 
[V:7] D4F4F4 | 
[V:8] B4A4d4- | 
[V:9] z12 | 
[V:10] G,,4D,4D,4 | 
[V:11] z12 | 
[V:12] z12 | 
[V:1] G2A2B2c2A4 | 
[V:2] z12 | 
[V:3] G4z4z4 | 
[V:4] d4d4d4 | 
[V:5] B8z4 | 
[V:6] G8D4 | 
[V:7] D8z4 | 
[V:8] d4B4z4 | 
[V:9] B4G4A4 | 
[V:10] G,,8z4 | 
[V:11] G,,8D,4 | 
[V:12] D,8F,4 | 
[V:1] G8^F4 | 
[V:2] G2A2B2c2A4 | 
[V:3] z12 | 
[V:4] d12 | 
[V:5] z12 | 
[V:6] G4D4A4 | 
[V:7] z12 | 
[V:8] B6AGA4 | 
[V:9] B4d8 | 
[V:10] z12 | 
[V:11] G,,4D,4D,4 | 
[V:12] D,4F,4F,4 | 
[V:1] G4z4z4 | 
[V:2] G8^F4 | 
[V:3] G2A2B2c2A4 | 
[V:4] z12 | 
[V:5] G4D8 | 
[V:6] B8z4 | 
[V:7] D4F6D2 | 
[V:8] d6G2A4 | 
[V:9] d6d2d4 | 
[V:10] G,,4D,8 | 
[V:11] G,,4z4z4 | 
[V:12] D,8z4 | 
[V:1] z12 | 
[V:2] G4z4z4 | 
[V:3] G8^F4 | 
[V:4] z12 | 
[V:5] G4D4A4 | 
[V:6] B6AGA4 | 
[V:7] D4z4z4 | 
[V:8] z12 | 
[V:9] d8d4 | 
[V:10] G,,4z4z4 | 
[V:11] G,,4D,8 | 
[V:12] D,4F,6E,2 | 
[V:1] d8c4 | 
[V:2] z12 | 
[V:3] G8z4 | 
[V:4] B8c4 | 
[V:5] B8G4 | 
[V:6] G8z4 | 
[V:7] D8E4 | 
[V:8] G4G4E4 | 
[V:9] d8z4 | 
[V:10] G,,8C,4 | 
[V:11] G,,8z4 | 
[V:12] D,8z4 | 
[V:1] B6AGA4 | 
[V:2] d8c4 | 
[V:3] z12 | 
[V:4] d4B4c4 | 
[V:5] G8z4 | 
[V:6] z12 | 
[V:7] D4D4E4 | 
[V:8] G8E4 | 
[V:9] z12 | 
[V:10] G,,4G,,4C,4 | 
[V:11] z12 | 
[V:12] z12 | 
[V:1] B8z4 | 
[V:2] B6AGA4 | 
[V:3] d8c4 | 
[V:4] d8z4 | 
[V:5] z12 | 
[V:6] G4G4E4 | 
[V:7] D8z4 | 
[V:8] G8z4 | 
[V:9] B8c4 | 
[V:10] G,,8z4 | 
[V:11] G,,8C,4 | 
[V:12] D,8E,4 | 
[V:1] z12 | 
[V:2] B8z4 | 
[V:3] B6AGA4 | 
[V:4] z12 | 
[V:5] B4d4c4 | 
[V:6] G8E4 | 
[V:7] z12 | 
[V:8] z12 | 
[V:9] d4B4c4 | 
[V:10] z12 | 
[V:11] G,,4G,,4C,4 | 
[V:12] D,4D,4E,4 | 
[V:1] d8B4 | 
[V:2] z4d8 | 
[V:3] B4z4d4- | 
[V:4] G6A2B2c2 | 
[V:5] B8G4- | 
[V:6] G8z4 | 
[V:7] G2A2B2c2d4 | 
[V:8] z12 | 
[V:9] d4G6A2 | 
[V:10] z4D,4D,4 | 
[V:11] G,,12 | 
[V:12] D,8z4 | 
[V:1] G4d6c2 | 
[V:2] B4G4d4- | 
[V:3] d4B4G4 | 
[V:4] d4G6A2 | 
[V:5] G2A2B2c2d4 | 
[V:6] d8B4 | 
[V:7] G4z4z4 | 
[V:8] G6A2B2c2 | 
[V:9] B2c2d4G4- | 
[V:10] G,4z4D,4 | 
[V:11] G,,8G,,4 | 
[V:12] D,4D,4G,4 | 
[V:1] B2A2G4d4- | 
[V:2] d2c2B2A2G4 | 
[V:3] d6c2B2A2 | 
[V:4] B2c2d4G4- | 
[V:5] G6A2B2c2 | 
[V:6] G4d6c2 | 
[V:7] z4G6A2 | 
[V:8] d4G4z4 | 
[V:9] G2A2B2c2d4 | 
[V:10] D,4G,4z4 | 
[V:11] G,,12- | 
[V:12] z4D,4D,4 | 
[V:1] d2c2B2A2G4 | 
[V:2] d6c2B2A2 | 
[V:3] G4d6c2 | 
[V:4] G2A2B2c2d4 | 
[V:5] d4G6A2 | 
[V:6] B2A2G4d4- | 
[V:7] B2c2d4G4 | 
[V:8] z4z4G4- | 
[V:9] G6A2B2c2 | 
[V:10] D,4D,4G,4 | 
[V:11] G,,12- | 
[V:12] G,4z4D,4 | 
[V:1] d6c2B2A2 | 
[V:2] G4d6c2 | 
[V:3] B2A2G4d4- | 
[V:4] G6A2B2c2 | 
[V:5] B2c2d4G4 | 
[V:6] d2c2B2A2G4- | 
[V:7] z4G8 | 
[V:8] G2A2B2c2d4 | 
[V:9] d4G6A2 | 
[V:10] z4D,4D,4 | 
[V:11] G,,12 | 
[V:12] D,4G,4z4 | 
[V:1] G4C2c3BA2- | 
[V:2] B4c4A4 | 
[V:3] d4A4c4 | 
[V:4] d4c4z4 | 
[V:5] d2B2e4A4 | 
[V:6] G4c8 | 
[V:7] D4A8 | 
[V:8] G4z4z4 | 
[V:9] B4A8 | 
[V:10] G,4E,4F,4 | 
[V:11] G,,4A,,4F,,4 | 
[V:12] z4C,8 | 
[V:1] AGG4^FEF4 | 
[V:2] d8d4 | 
[V:3] G4A6GA | 
[V:4] d6c2A4 | 
[V:5] z4A4d4- | 
[V:6] B4A8 | 
[V:7] D6E2F4 | 
[V:8] D12 | 
[V:9] B4d6B2 | 
[V:10] D,4z4D,4 | 
[V:11] G,,4D,8 | 
[V:12] G,4D,8 | 
[V:1] G12- | 
[V:2] d12- | 
[V:3] B12- | 
[V:4] z4d6d2 | 
[V:5] d2c2B2A2G4 | 
[V:6] G12- | 
[V:7] D12- | 
[V:8] G12- | 
[V:9] B12- | 
[V:10] B,,12 | 
[V:11] G,,12- | 
[V:12] D,12- | 
[V:1] G12 |]  
[V:2] d12 |]  
[V:3] B12 |]  
[V:4] d12 |]  
[V:5] d12 |]  
[V:6] G12 |]  
[V:7] D12 |]  
[V:8] G12 |]  
[V:9] B12 |]  
[V:10] G,,12 |]  
[V:11] G,,12 |]  
[V:12] D,12 |]  



